matemadrigal/TFG-OPTIMIZATION-ML/data/processed/master_weekly_raw.csv
date,AGG_log_ret,AGG_vol_4w,AGG_vol_12w,AGG_mom_4w,AGG_mom_12w,AGG_drawdown,EEM_log_ret,EEM_vol_4w,EEM_vol_12w,EEM_mom_4w,EEM_mom_12w,EEM_drawdown,EFA_log_ret,EFA_vol_4w,EFA_vol_12w,EFA_mom_4w,EFA_mom_12w,EFA_drawdown,GLD_log_ret,GLD_vol_4w,GLD_vol_12w,GLD_mom_4w,GLD_mom_12w,GLD_drawdown,IWM_log_ret,IWM_vol_4w,IWM_vol_12w,IWM_mom_4w,IWM_mom_12w,IWM_drawdown,LQD_log_ret,LQD_vol_4w,LQD_vol_12w,LQD_mom_4w,LQD_mom_12w,LQD_drawdown,QQQ_log_ret,QQQ_vol_4w,QQQ_vol_12w,QQQ_mom_4w,QQQ_mom_12w,QQQ_drawdown,SPY_log_ret,SPY_vol_4w,SPY_vol_12w,SPY_mom_4w,SPY_mom_12w,SPY_drawdown,TIP_log_ret,TIP_vol_4w,TIP_vol_12w,TIP_mom_4w,TIP_mom_12w,TIP_drawdown,VNQ_log_ret,VNQ_vol_4w,VNQ_vol_12w,VNQ_mom_4w,VNQ_mom_12w,VNQ_drawdown,spread_10y_2y,cpi_change,unrate_change,umcsent_change,vix_level,vix_change,hy_spread_change,nfci_change,fed_balance_change,reverse_repo_change,bank_deposits_change,tga_change,aaii_bull_bear_spread,recession_change,recession_ma4w,inflation_change,inflation_ma4w,bear_market_change,bear_market_ma4w,bull_market_change,bull_market_ma4w,buy_stocks_change,buy_stocks_ma4w,sell_stocks_change,sell_stocks_ma4w,unemployment_change,unemployment_ma4w,target_AGG,target_EEM,target_EFA,target_GLD,target_IWM,target_LQD,target_QQQ,target_SPY,target_TIP,target_VNQ,AGG_news_sent,EEM_news_sent,EFA_news_sent,GLD_news_sent,IWM_news_sent,LQD_news_sent,QQQ_news_sent,SPY_news_sent,TIP_news_sent,VNQ_news_sent,AGG_news_count,EEM_news_count,EFA_news_count,GLD_news_count,IWM_news_count,LQD_news_count,QQQ_news_count,SPY_news_count,TIP_news_count,VNQ_news_count,news_sent_all,news_count_all
2007-03-30,-0.0014948762380279,0.0032133617969532,0.003707456884167,-0.0038826588509758,0.0099635738796163,-0.0038751310768437,-0.0035984799897525,0.0350964891343146,0.0354898530700007,0.0757600151306146,0.0553219766578454,-0.0126282250627995,-0.0026174909584029,0.0250005892529465,0.0247047705634934,0.0524669467220153,0.0552330570350643,-0.00495546451719,0.0090152087490678,0.0014433270134966,0.0236119221096561,0.0313660139827663,0.0885336769400293,-0.0292380880277992,-0.0098945314391657,0.0244177606277994,0.0272243561183619,0.0350630363892353,0.0367552564121435,-0.028642771733541,-0.000559044975187,0.0022212171382709,0.0051292944410152,-0.0097406684918256,0.0092952864509654,-0.0096933818395728,-0.0134623644687879,0.01842900462076,0.0266653586292027,0.0250466442975623,-0.0066940595921977,-0.0386796390754084,-0.0097411422984598,0.0221202309604781,0.0208123540422766,0.0276881572971026,0.0142931800764379,-0.0217307405199748,0.0003961129851488,0.0046380394800751,0.0064446187487672,-0.0001978993838813,0.0229509441260795,-0.0001978798030899,-0.0174032521609293,0.0219919695907504,0.0270548404088584,0.0051367604514904,0.0516687133406432,-0.0676529054549889,0.0700000000000002,0.0,0.0,0.0,14.64,1.6900000000000013,0.0099999999999997,0.0057899999999999,0.0078047243145664,0.0,0.0057961602134084,-0.0772928994082839,-0.2849319999999999,0.0,7.0,0.0,71.75,-3.0,15.75,6.0,42.0,-1.0,18.0,3.0,20.25,1.0,16.5,0.0004905289984851,0.0302672419166361,0.0186967672371515,0.016893354379819,0.012383701054193,-0.0011997975865468,0.0233861210010694,0.015651601758042,-0.0010035987058978,0.0090328532153548,,,,,,,,,,,,,,,,,,,,,,
2007-04-06,0.0004905289984851,0.0024042183200303,0.0034150756855482,0.0007899347492175,0.0142590294656864,-0.003386383079792,0.0302672419166361,0.0338572675805421,0.0361626063428825,0.0678750182466976,0.0705528737086178,0.0,0.0186967672371515,0.0244899099431168,0.0249513944585792,0.0479540801808854,0.061541544150274,0.0,0.016893354379819,0.0048291889207181,0.0224850115235897,0.0398191663454232,0.0727283512918902,-0.012699359049755,0.012383701054193,0.0240007322521573,0.0261973628563114,0.030418304624916,0.0202372725491976,-0.0165389840396766,-0.0011997975865468,0.0005946448991469,0.0047874131029012,-0.0052927174612462,0.0136165826210075,-0.0108808368347178,0.0233861210010694,0.0204334479448208,0.0257219577282997,0.0378953531816127,-0.0160614425192356,-0.0159331453489153,0.015651601758042,0.0221896338504828,0.0205705833628721,0.0282382383927102,0.0109151790356035,-0.0062988074552752,-0.0010035987058978,0.0027695653710846,0.0053772965061354,0.0048526495134022,0.0318937440239995,-0.0012007765799424,0.0090328532153548,0.021679377091191,0.0242919519183478,0.0028982775783814,0.0178285476539008,-0.0591929999839808,0.0099999999999997,0.0,0.0,0.0,13.23,-1.41,0.04,0.00369,-0.0086042471686117,0.0,0.0058452020893686,-0.0442885771543086,-0.2849319999999999,-1.0,6.25,-4.0,70.0,-1.0,13.0,0.0,37.0,1.0,16.0,8.0,20.25,0.0,16.0,-0.0033074860010104,0.0226430760351955,0.0117650730509246,0.0145510473813286,0.0113722175455684,-0.0032868505272262,0.0020173202074022,0.0074599505932357,-0.0061844810667744,-0.0046313148446194,,,,,,,,,,,,,,,,,,,,,,
2007-04-13,-0.0033074860010104,0.0015563058759829,0.0036449497266488,-0.0060042673874987,0.0092471843817972,-0.0066772234619224,0.0226430760351955,0.0253857741557953,0.0364867568772251,0.1074160691599954,0.0866043142684505,0.0,0.0117650730509246,0.0192361572147075,0.0250140157114894,0.0712566816048321,0.0652678972379123,0.0,0.0145510473813286,0.0042404757373952,0.022525580068022,0.048627934602139,0.0740172111105484,0.0,0.0113722175455684,0.0202990770804376,0.0257345997474947,0.0534983879801114,0.0471767594107833,-0.005291015468038,-0.0032868505272262,0.0011656848011334,0.0049397910762762,-0.0066284556711004,0.0082670495405666,-0.0141265866083896,0.0020173202074022,0.0198310280240416,0.0245748317126689,0.0416151001202203,0.011437820504335,-0.0139459636806416,0.0074599505932357,0.0183666981966574,0.0206127641448077,0.0478512647080797,0.0213115084725617,0.0,-0.0061844810667744,0.0030864840841754,0.0059198372096754,-0.0065944744025013,0.0216374322648817,-0.0073587698428557,-0.0046313148446194,0.0192694310459888,0.0234159917083951,0.0145885919764138,-0.0091771216283646,-0.0635400992463016,0.0,0.0,0.0,0.0,12.2,-1.0300000000000011,-0.1299999999999999,0.0036099999999998,0.0036204699189046,0.0,0.0011489449943624,-0.0203396938561543,-0.2849319999999999,1.0,5.75,-1.0,68.75,-2.0,11.75,-5.0,35.25,3.0,16.5,-7.0,19.5,2.0,16.25,0.0055070435101723,0.0026828526325627,0.0178911421438279,0.0125972173047103,0.0116090634783176,0.0069378969874136,0.0166579859851199,0.0224544829160949,0.0069800466114101,0.0087447548556248,,,,,,,,,,,,,,,,,,,,,,
2007-04-20,0.0055070435101723,0.003802855665507,0.0036596946939789,0.001195210269619,0.0178644782221397,-0.0011918615115327,0.0026828526325627,0.0160530331459238,0.0365050085780314,0.0519946905946419,0.084416497185154,0.0,0.0178911421438279,0.0098657062605965,0.0250523645897596,0.0457354914735011,0.087374611808362,0.0,0.0125972173047103,0.0033329431569066,0.02230022546238,0.0530568278149261,0.0682133715788029,0.0,0.0116090634783176,0.0108500311368258,0.0258299647426875,0.0254704506389133,0.0548075146831792,0.0,0.0069378969874136,0.0044644797244817,0.0048341170871034,0.0018922038984533,0.0206505070931934,-0.0072629162361908,0.0166579859851199,0.0163831966079321,0.0244931178482268,0.0285990627248038,0.0417734198616918,0.0,0.0224544829160949,0.0138907813278614,0.02131034458096,0.0358248929689129,0.0486091340713959,0.0,0.0069800466114101,0.0054198440665513,0.0060227237847216,0.0001880798238866,0.0296347779050868,-0.0004058501656751,0.0087447548556248,0.0126208163077162,0.0228396615149617,-0.0042569589345689,-0.0190468994793236,-0.0553150764926526,0.04,0.0,0.0,0.0,12.07,-0.129999999999999,-0.0299999999999998,0.00442,-0.0047444019869639,0.0,0.0015399436149328,0.1673801369863012,-0.2849319999999999,-1.0,5.5,9.0,69.75,4.0,11.25,12.0,38.5,-2.0,16.75,2.0,21.0,0.0,17.0,-0.0002000907354156,0.0004873327073288,-0.0078982500074263,-0.0167330990040527,0.0025477164520403,0.0015858735739757,0.0254446305555926,0.0061041638248208,0.0014886398432517,0.0018636567947609,,,,,,,,,,,,,,,,,,,,,,
2007-04-27,-0.0002000907354156,0.0036513754090813,0.0036584891781405,0.0024899957722313,0.0147182269753129,-0.001391693773543,0.0004873327073288,0.0147195369563522,0.0363474594694892,0.0560805032917236,0.0660005826704316,0.0,-0.0078982500074263,0.0124004707641855,0.0251620727507134,0.0404547324244777,0.061513992529444,-0.0078671407875143,-0.0167330990040527,0.0158047046920196,0.0232158223085879,0.0273085200618053,0.0497675339238304,-0.016593878315705,0.0025477164520403,0.0046404532899287,0.0247960308092494,0.0379126985301193,0.029813923819208,0.0,0.0015858735739757,0.0044278557949774,0.0046693149765376,0.0040371224476161,0.0165361106903897,-0.0056873117045688,0.0254446305555926,0.0105929378876975,0.0251722312415008,0.0675060577491842,0.0537671828960119,0.0,0.0061041638248208,0.0076296734512599,0.0208292976736664,0.0516701990921938,0.0360331346173002,0.0,0.0014886398432517,0.0054705919039794,0.0059512846164051,0.0012806066819893,0.0256461919973943,0.0,0.0018636567947609,0.0064977128956946,0.0216750630120543,0.0150099500211215,-0.0390247993631098,-0.0535528664487335,0.04,0.0,0.0,0.0,12.45,0.379999999999999,-0.0500000000000002,0.0065499999999999,0.0213052993318512,0.0,0.0031885538911067,0.1980198019801979,-0.2849319999999999,1.0,5.5,-2.0,70.25,-1.0,11.25,0.0,40.25,4.0,18.25,10.0,24.25,-1.0,17.25,0.0033104238194437,0.0121797840947138,0.0136261000076459,0.0092819065328172,0.003628880850283,0.0050256265996365,0.0012877165594336,0.0092527886171912,0.0031213827536947,-0.0232344443770345,,,,,,,,,,,,,,,,,,,,,,
2007-05-04,0.0033104238194437,0.0038823188735874,0.0036726229696027,0.0053098905931899,0.0150145179837803,0.0,0.0121797840947138,0.0101262587419635,0.0360300199500192,0.0379930454698012,0.0886379177678188,0.0,0.0136261000076459,0.0114535998456368,0.0251942350630397,0.0353840651949722,0.0760769489133314,0.0,0.0092819065328172,0.0146011368440994,0.0220444935625636,0.0196970722148038,0.0308266478433804,-0.0074235011570693,0.003628880850283,0.0048720924653028,0.0247916282256152,0.0291578783262095,0.0326958266008454,0.0,0.0050256265996365,0.0044862661852655,0.0047837404271273,0.0102625466337996,0.0193083408207863,-0.0006776897091031,0.0012877165594336,0.0117640946842933,0.0249687863310589,0.0454076533075485,0.0614154325175185,0.0,0.0092527886171912,0.0075355818750895,0.0206937545189576,0.0452713859513428,0.0513119564925023,0.0,0.0031213827536947,0.0055263863977475,0.0058542806804641,0.0054055881415822,0.0300836224589194,0.0,-0.0232344443770345,0.0137450406272498,0.0214636573430255,-0.0172573475712679,-0.0782746089435051,-0.0752895420877889,-0.0299999999999993,0.0030560887793789,0.0,-0.1000000000000085,12.91,0.4600000000000008,0.0700000000000002,0.00878,0.0126988493621587,5.75,-0.0002888633454014,1.278389960208142,-0.2849319999999999,0.0,5.75,0.0,71.75,1.0,11.75,2.0,42.5,-3.0,18.75,-8.0,23.5,0.0,17.5,-0.0015992236808275,0.0097333459734295,-0.0044798166852336,-0.0258482231019283,-0.0058129054932584,-0.0014925086768154,0.0032115333167036,-0.0003970528743853,-0.0022853839632559,0.0069640690492286,,,,,,,,,,,,,,,,,,,,,,
2007-05-11,-0.0015992236808275,0.0032439877307679,0.0035736257926946,0.0070181529133728,0.0086141315738683,-0.0015979456040378,0.0097333459734295,0.0055745606069974,0.0351352818768543,0.025083315408035,0.0652849945571437,0.0,-0.0044798166852336,0.0128664637725538,0.0247847965286786,0.0191391754588138,0.0485531970692006,-0.0044697972737596,-0.0258482231019283,0.0190247703378687,0.0235093736287375,-0.0207021982684533,0.0013552647138017,-0.0327510931579098,-0.0058129054932584,0.0071270176831973,0.024768630607243,0.0119727552873826,0.0162312758066667,-0.0057960432468242,-0.0014925086768154,0.0037323707608689,0.0043811906654242,0.0120568884842104,0.0096883483917922,-0.0021680744454092,0.0032115333167036,0.0114594414202046,0.0245983711191255,0.04660186641685,0.0458888249198433,0.0,-0.0003970528743853,0.0096138331420472,0.0205680322688382,0.0374143824837217,0.0385556044368068,-0.0003969740593243,-0.0022853839632559,0.00384095550427,0.005806242512872,0.0093046852451006,0.0206342892326116,-0.0022827744616091,0.0069640690492286,0.0148353986486653,0.0217786874181205,-0.0056619636774198,-0.0699077291849681,-0.0688273190417846,-0.04,0.0,0.0,0.0,12.95,0.0399999999999991,-0.0700000000000002,0.00856,-0.0174966352624494,0.0,-0.0002518917416642,-0.6699133472156915,-0.2849319999999999,0.0,5.75,-1.0,73.25,-1.0,12.5,4.0,47.0,-2.0,18.0,4.0,25.5,-1.0,17.0,-0.0046152669965336,0.0071203450397774,0.0019937027983427,-0.0140943509240653,-0.0074356281534928,-0.0067447023480967,-0.0014979137445628,0.0115981087254505,-0.0082937426948099,-0.0611376517163282,,,,,,,,,,,,,,,,,,,,,,
2007-05-18,-0.0046152669965336,0.0032887788719771,0.0038902284549277,-0.0031041575933331,0.0032009974882769,-0.0061952206685988,0.0071203450397774,0.0050382684713835,0.0350056988571277,0.0295208078152497,0.0765667721494006,0.0,0.0019937027983427,0.0094775058203179,0.024791924537087,0.0032417361133288,0.0466269349992281,-0.0024830260651836,-0.0140943509240653,0.0149598293323897,0.0229147439221271,-0.0473937664972291,-0.0330261869811121,-0.0462882161053305,-0.0074356281534928,0.0056637737931879,0.0247424322917461,-0.0070719363444279,-0.0007679353269694,-0.0131611581163779,-0.0067447023480967,0.0049943226328632,0.0048306573424103,-0.0016257108512997,0.0001568266646463,-0.0088755085261961,-0.0014979137445628,0.0123740571989226,0.0244909991689384,0.0284459666871672,0.0321641464389061,-0.0014967924317163,0.0115981087254505,0.0052030996871516,0.0206003038037517,0.0265580082930772,0.0531089265508538,0.0,-0.0082937426948099,0.0050682237454583,0.0064279405690975,-0.0059691040611193,0.0085270970010056,-0.0105233645091535,-0.0611376517163282,0.0311067268618544,0.0269072804500738,-0.075544370249373,-0.1125078722864796,-0.1240516855979843,-0.0100000000000006,0.0,0.0,0.0,12.76,-0.1899999999999995,-0.1200000000000001,0.00897,-0.0179498897483062,0.0,0.0017002043046081,-0.0942205942205942,-0.2849319999999999,0.0,6.0,-3.0,71.75,1.0,12.5,-5.0,47.25,1.0,18.0,-2.0,26.5,0.0,16.5,-0.0009060278373208,-0.0087094850883995,-0.001869026982533,-0.0088915840400642,0.0092561585761951,-0.0022593786732061,-0.005581372241343,-0.0061121612058741,0.0011034605508536,-0.0001336335358656,,,,,,,,,,,,,,,,,,,,,,
2007-05-25,-0.0009060278373208,0.0032664349955408,0.0031576136418366,-0.0038100946952384,-0.0052027577739829,-0.0070952276862627,-0.0087094850883995,0.0094229058830854,0.0213340788229193,0.0203239900195212,0.1521645084418592,-0.0086716673936686,-0.001869026982533,0.0079941603858812,0.0158878867847421,0.0092709591382223,0.1021926382847155,-0.0043456709959597,-0.0088915840400642,0.0146162041445566,0.0141084590642563,-0.0395522515332406,0.0191222825113314,-0.0547306357184946,0.0092561585761951,0.0079139255348141,0.0143606956949844,-0.000363494220273,0.0726122406990816,-0.0039844161364104,-0.0022593786732061,0.0048510290082437,0.0039206723067366,-0.0054709630984817,-0.011174509142691,-0.0111123062266818,-0.005581372241343,0.0038167820338776,0.0135592764610268,-0.0025800361097685,0.0899726659369779,-0.0070542868676253,-0.0061121612058741,0.0082910678663612,0.0135769370711385,0.0143416832623822,0.0937000396516786,-0.0060935199473667,0.0011034605508536,0.0049958507448807,0.0046455271527188,-0.0063542833535173,-0.005271576055409,-0.0094309134484229,-0.0001336335358656,0.0306756727563549,0.0227479772900621,-0.0775416605799997,-0.0573949501073879,-0.1241687338475135,0.0100000000000006,0.0,0.0,0.0,13.34,0.5800000000000001,-0.0599999999999996,0.0084899999999999,0.0167248554200467,0.0,0.0033886634120707,0.1037968995731295,-0.2849319999999999,-1.0,5.75,-5.0,69.5,0.0,12.75,-7.0,45.75,0.0,17.0,-7.0,23.25,-1.0,16.0,-0.0030479249750028,0.0342384331454061,0.0169403316587677,0.0228355172216253,0.0264385754513324,-0.0059133467944477,0.0210893537058485,0.0156331988581196,-0.0048669286743832,0.0588706104016465,,,,,,,,,,,,,,,,,,,,,,
2007-06-01,-0.0030479249750028,0.0016451573557089,0.0030503680589372,-0.0101684434896849,-0.0040686181472774,-0.0101169196551337,0.0342384331454061,0.0177434565257398,0.0209354628516098,0.0423826390702137,0.1482507027867126,0.0,0.0169403316587677,0.0095727904352363,0.0154580553369347,0.0125851907893439,0.0959233361652017,0.0,0.0228355172216253,0.0208032060636414,0.0153048159973837,-0.0259986408444324,0.0335175977157944,-0.0328965736132214,0.0264385754513324,0.0157881305829257,0.0152443580658826,0.0224462003807761,0.0820223833319018,0.0,-0.0059133467944477,0.0026121223996731,0.003950356222886,-0.016409936492566,-0.0114401073200127,-0.0169426865806785,0.0210893537058485,0.0117519411459116,0.0141054724068282,0.0172216010366461,0.1005246075258075,0.0,0.0156331988581196,0.0101501709073714,0.0136037421366045,0.0207220935033107,0.0942317178473637,0.0,-0.0048669286743832,0.003978536640055,0.0045261871142752,-0.0143425947815953,-0.0040843571266108,-0.0142402297468362,0.0588706104016465,0.0491489952438524,0.029072635811519,0.0045633941986814,-0.0097956757942051,-0.0710600807387228,-0.0199999999999995,0.0015900370373895,0.1999999999999993,-3.0,12.78,-0.5600000000000005,-0.04,0.0064199999999999,0.0034911063179756,0.0,-0.0068056126116162,0.0549562385507835,-0.2849319999999999,-1.0,5.25,-3.0,66.5,-2.0,12.25,-1.0,43.5,0.0,16.75,0.0,22.0,0.0,15.5,-0.0093721939994735,-0.0314588402613042,-0.0233207241658449,-0.0339846138216101,-0.0220839168462681,-0.0110100838300073,-0.0112352214083905,-0.0199271723089103,-0.0071074815183309,-0.0388158453516492,,,,,,,,,,,,,,,,,,,,,,
2007-06-08,-0.0093721939994735,0.0035951754963128,0.0037602474030532,-0.017941413808331,-0.0169275282824569,-0.0193509567359333,-0.0314588402613042,0.0276171992566279,0.023095562179337,0.0011904528354799,0.1336898374035103,-0.0309691593108874,-0.0233207241658449,0.0166184197725262,0.0170986924116129,-0.0062557166912674,0.0841401403723786,-0.0230508976644562,-0.0339846138216101,0.0235430508014897,0.0185594810232075,-0.0341350315641142,-0.0062092952304284,-0.065211003297631,-0.0220839168462681,0.0209613092220819,0.016623622601531,0.0061751890277664,0.0716463322952604,-0.0218418523399024,-0.0110100838300073,0.0035928843089884,0.0049078991590454,-0.025927511645758,-0.0204990788326479,-0.0277068640254546,-0.0112352214083905,0.0141711156758544,0.0149668736418831,0.0027748463115519,0.0909918128486221,-0.0111723420166203,-0.0199271723089103,0.0164621641229752,0.0147775406344616,0.0011919740687857,0.086457621260587,-0.019729938487571,-0.0071074815183309,0.0041787447573063,0.0045427126373598,-0.0191646923366703,-0.016454481494071,-0.0212216595142647,-0.0388158453516492,0.052553301673444,0.0308350211138077,-0.0412165202021965,-0.0322898919032026,-0.1064268333947402,0.1100000000000003,0.0,0.0,0.0,14.84,2.0600000000000005,0.0999999999999996,0.0030599999999999,-0.0048803515677559,0.0,0.0014493628129887,-0.0472699208952344,-0.2849319999999999,0.0,4.75,0.0,63.75,5.0,13.25,6.0,41.75,3.0,17.75,8.0,21.75,1.0,15.5,0.0018408913038532,0.0489030814574266,0.0138349665487807,0.0097621795635804,0.0177058838905363,-0.0004809637022203,0.0187390226737798,0.0176513556083015,-0.0011209651584919,-0.0105747592596882,,,,,,,,,,,,,,,,,,,,,,
2007-06-15,0.0018408913038532,0.0047735333081107,0.0038728267648922,-0.011485255507944,-0.013394202831658,-0.0175440257685937,0.0489030814574266,0.0372720703866812,0.0214917028701557,0.0429731892531291,0.1244886876630207,0.0,0.0138349665487807,0.0184203781141813,0.013019796280215,0.0055855470591703,0.0545627746460005,-0.0094409097356802,0.0097621795635804,0.0246601118128142,0.0186328499771416,-0.0102785010764685,-0.0046154397587714,-0.056040737192778,0.0177058838905363,0.021139918870835,0.0134974715717389,0.0313167010717959,0.0497152153662813,-0.004368463339909,-0.0004809637022203,0.0046497219335951,0.0049207496782157,-0.0196637729998817,-0.0193972799527279,-0.0281743892914225,0.0187390226737798,0.0165419486013472,0.0137858680918659,0.0230117827298947,0.0800568121418654,0.0,0.0176513556083015,0.0180489581003476,0.0125903192808885,0.0072452209516367,0.069628122213627,-0.0022732289932029,-0.0011209651584919,0.0036844706170658,0.004517195047547,-0.0119919148003524,-0.0177729390375851,-0.0223182212132816,-0.0105747592596882,0.0410788807952383,0.0293607845645153,0.0093463722544435,-0.0704549569294984,-0.1158263680124725,0.1100000000000003,0.0,0.0,0.0,13.94,-0.9000000000000004,0.0,0.0037,-0.0088426113719854,0.0,-0.0004569724668278,0.0040502227622518,-0.2849319999999999,0.0,4.25,2.0,62.25,-1.0,13.75,-7.0,39.5,-3.0,17.75,0.0,22.0,-1.0,15.25,0.0019390273499526,-0.0074278289770493,-0.0102017111985976,-0.0010799923337381,-0.0168616981456485,0.0016358535697137,-0.0098893461030393,-0.0166000439020731,0.0043769423071777,-0.0423460522335092,,,,,,,,,,,,,,,,,,,,,,
2007-06-22,0.0019390273499526,0.0053420754230964,0.0039679960952261,-0.0086402003206704,-0.0099602992436774,-0.0156371686378244,-0.0074278289770493,0.0370539701859517,0.0217449671894897,0.0442548453644793,0.1206593386757241,-0.0074003108309069,-0.0102017111985976,0.0193599718704534,0.0135715802088168,-0.0027471371568942,0.0469785544058057,-0.0194949361651861,-0.0010799923337381,0.0242992451610848,0.0183962646566157,-0.0024669093701423,-0.0147106408415774,-0.0570596556488728,-0.0168616981456485,0.0243430746361605,0.0142831692231902,0.005198844349952,0.0427480486597983,-0.0210157565353105,0.0016358535697137,0.0056843422322083,0.0050037205756547,-0.0157685407569618,-0.0172023814078271,-0.0265833238767964,-0.0098893461030393,0.0176303059190281,0.0133429508471257,0.0187038088681982,0.083629830507614,-0.0098406073170926,-0.0166000439020731,0.0202154413038695,0.0134840787217944,-0.0032426617445623,0.0627692206100136,-0.018698827181915,0.0043769423071777,0.0050204484001618,0.004804614604786,-0.0087184330440283,-0.0137921097155561,-0.018029585764455,-0.0423460522335092,0.0469304025140328,0.0310837452448461,-0.0328660464432001,-0.0953977570020783,-0.1524859583868412,0.2199999999999997,0.0,0.0,0.0,15.75,1.8100000000000005,0.1800000000000001,0.00539,0.0012716924723898,0.0,0.0003043841235903,0.1042759177087535,-0.2849319999999999,-1.0,3.75,-5.0,60.75,1.0,14.5,4.0,40.0,0.0,17.75,-6.0,22.5,-1.0,15.0,0.0028507964857175,0.0014446241441238,0.0099539467227886,-0.0079039877478971,0.0016633885164129,0.0055616802199338,0.0065335082047979,-0.0007978057761913,0.0050635835139945,-0.0040510055666838,,,,,,,,,,,,,,,,,,,,,,
2007-06-29,0.0028507964857175,0.005809040145564,0.0040958434388067,-0.0027414788599499,-0.0076000317564449,-0.0128269467554048,0.0014446241441238,0.033692683430375,0.0208842081336958,0.0114610363631969,0.0918367209032119,-0.0059653411080873,0.0099539467227886,0.0174617016990698,0.0129251765203393,-0.0097335220928733,0.0382357338914428,-0.0096863046881062,-0.0079039877478971,0.0186031094521948,0.0175491410639359,-0.033206414339665,-0.0395079829692937,-0.0644832678597248,0.0016633885164129,0.0181885782482537,0.0140139885043199,-0.0195763425849673,0.0320277361220183,-0.0193859702788932,0.0055616802199338,0.0070817373276279,0.0053976255418103,-0.0042935137425802,-0.0104409036013467,-0.0211544086522948,0.0065335082047979,0.0143011149524323,0.0123044082880319,0.0041479633671477,0.0667772177113425,-0.0033502133676718,-0.0007978057761913,0.0172055922638561,0.0131606352530878,-0.0196736663788733,0.0463198130757803,-0.0194814027126245,0.0050635835139945,0.0056628342262065,0.0051295860747343,0.0012120791443494,-0.0077249274956638,-0.0130446864878164,-0.0040510055666838,0.0194445802394186,0.0306604802413917,-0.0957876624115305,-0.1084816157841171,-0.1559122977416567,0.1600000000000001,0.0,0.0,0.0,16.23,0.4800000000000004,0.2000000000000001,0.0120799999999999,-0.0011361418976572,0.0,0.0037402284845156,-0.1008219178082191,-0.2849319999999999,0.0,3.5,-3.0,59.25,-4.0,14.75,-9.0,38.5,0.0,17.75,-1.0,22.75,2.0,15.25,-0.0043908534718665,0.0494303152347223,0.0213140252835669,0.0106787746082546,0.0226600390863536,-0.0107005460100538,0.0261264998174127,0.0168099001093682,-0.0073640709488536,0.0338119779225079,,,,,,,,,,,,,,,,,,,,,,
2007-07-06,-0.0043908534718665,0.003331721156714,0.0041713886994957,0.002239861667657,-0.0086833992273011,-0.0171519767483636,0.0494303152347223,0.0303314333014281,0.0238527562055301,0.0923501918592238,0.1186239601027386,0.0,0.0213140252835669,0.0134700411059249,0.0137678228026697,0.0349012273565384,0.047784686124085,0.0,0.0106787746082546,0.0089472569148214,0.0172237995077383,0.0114569740901997,-0.0433802557423678,-0.0544395637540887,0.0226600390863536,0.0178485034951344,0.0149957231682838,0.0251676133476545,0.0433155576628036,0.0,-0.0107005460100538,0.0069371775895884,0.0060804835947549,-0.0039839759226266,-0.0178545990841742,-0.0315727505561849,0.0261264998174127,0.0157423778438328,0.0135751973276432,0.0415096845929511,0.0908863973213531,0.0,0.0168099001093682,0.016304918395876,0.013660430424164,0.0170634060394052,0.0556697625919127,-0.0028596696024472,-0.0073640709488536,0.0057751007391373,0.0052551815187392,0.0009554897138266,-0.0089045173777429,-0.020285999942451,0.0338119779225079,0.0312547576809231,0.0330762537243468,-0.0231598391373733,-0.0700383230169897,-0.1268840370265577,0.2000000000000001,0.0,0.0,0.0,14.72,-1.5099999999999998,0.0099999999999997,0.02468,0.0133001196386566,0.0,0.0041540462025415,-0.0641885029453585,-0.2849319999999999,0.0,3.25,-5.0,56.5,0.0,13.75,-1.0,35.25,0.0,17.0,5.0,22.25,-1.0,15.0,0.0039918620222319,0.0320196559704566,0.0126452881435598,0.0163374839596678,0.0011788502787806,0.0047474111411846,0.021062164024853,0.0121496940578765,0.0048952320025657,-0.0060130610729903,,,,,,,,,,,,,,,,,,,,,,
2007-07-13,0.0039918620222319,0.0037541786506158,0.0039843856506935,0.0043908323860358,-0.0101985807152414,-0.0132207417973077,0.0320196559704566,0.0264705232804934,0.0245409227819146,0.0754667663722536,0.1479607634406323,0.0,0.0126452881435598,0.013332039348722,0.0133633762386938,0.0337115489513178,0.0425388321238171,0.0,0.0163374839596678,0.011004517983907,0.0175741337570202,0.0180322784862871,-0.0396399890874103,-0.0388646038944784,0.0011788502787806,0.016158443412483,0.0147907858842315,0.0086405797358988,0.0328853444632668,0.0,0.0047474111411846,0.0075334978387325,0.0058323576969602,0.0012443989207783,-0.0200450849304031,-0.0269642977881468,0.021062164024853,0.0161901769021338,0.0138987976996126,0.0438328259440243,0.0952905753610861,0.0,0.0121496940578765,0.0149773971379887,0.0127309716042732,0.0115617444889803,0.0453649737336943,0.0,0.0048952320025657,0.0060783559946171,0.0050051996365927,0.0069716868748845,-0.0109893319865872,-0.0154783148497069,-0.0060130610729903,0.0311048379337726,0.0327576391137489,-0.0185981409506755,-0.084796138945605,-0.132118383641313,0.1699999999999999,0.0,0.0,0.0,15.15,0.4299999999999997,0.1600000000000001,0.0445599999999999,-0.0082180123224554,0.0,-0.0026399022282538,0.0662036032125026,-0.2849319999999999,0.0,3.0,5.0,54.5,1.0,13.25,4.0,34.75,1.0,17.25,6.0,23.25,2.0,15.5,0.0050950261505579,-0.0199453612542414,-0.0138580567190647,0.0232029426613863,-0.0196261691972937,0.004049573938744,0.003001269048978,-0.008756587803627,0.0111292708404188,-0.0280812999152572,,,,,,,,,,,,,,,,,,,,,,
2007-07-20,0.0050950261505579,0.0042841655528964,0.0043402115425732,0.0075468311866409,-0.0049034638292679,-0.008180245846567,-0.0199453612542414,0.0309723924856836,0.0260968255256317,0.0629492340950614,0.127528069479062,-0.0197477684039754,-0.0138580567190647,0.0150497947283195,0.0139262191583517,0.0300552034308509,0.0365790254121787,-0.0137624758820182,0.0232029426613863,0.0133435984244436,0.0185537760273023,0.0423152134814115,0.0002960525780287,-0.0163026952975164,-0.0196261691972937,0.0172644941500844,0.0161405634883177,0.0058761086842537,0.0107114588139327,-0.0194348297367332,0.004049573938744,0.0077680000477656,0.0059984046540886,0.0036581192898086,-0.0175813845656348,-0.0230159285562213,0.003001269048978,0.0111581942840462,0.0127955443585935,0.0567234410960416,0.0728472138544714,0.0,-0.008756587803627,0.0117382803815341,0.0131985782228112,0.0194052005874262,0.0305042221052463,-0.0087183605501205,0.0111292708404188,0.0077589998283857,0.0060837270290915,0.0137240154081254,-0.0013487009894202,-0.0044601077887656,-0.0280812999152572,0.0256884036176618,0.0331537060737086,-0.0043333886324235,-0.1147410956556233,-0.1561506201640818,0.1699999999999999,0.0,0.0,0.0,16.95,1.799999999999999,0.31,0.06822,0.0040360843655502,0.0,-0.001682207338077,-0.1502442996742671,-0.2849319999999999,0.0,3.0,3.0,54.5,4.0,13.5,6.0,34.75,2.0,18.0,-5.0,24.5,0.0,16.25,0.0033479938056694,-0.0659204139525689,-0.0596240477686857,-0.0326369004206522,-0.0828592537496907,-0.0074379100309322,-0.0420297632240329,-0.0562081936612915,0.010210038198277,-0.1010925560813566,,,,,,,,,,,,,,,,,,,,,,
2007-07-27,0.0033479938056694,0.0043284451388418,0.0043431507358246,0.0080440285065928,-0.004865893843042,-0.0048540745598262,-0.0659204139525689,0.0523037857542054,0.0341658153608435,-0.0044158040016313,0.0494278714317792,-0.0822825966177374,-0.0596240477686857,0.0363810895982518,0.0223650085363407,-0.0395227910606234,-0.0366711223641528,-0.0708472266924236,-0.0326369004206522,0.0252138130201809,0.0204968252476183,0.0175823008086566,-0.0416227543754409,-0.0478892784902371,-0.0828592537496907,0.0455316380757418,0.0289972340463335,-0.0786465335818501,-0.0757766757860411,-0.0974086932216397,-0.0074379100309322,0.0078939931222259,0.0058495454993757,-0.0093414709610573,-0.0300449211962036,-0.030255690455664,-0.0420297632240329,0.0310111284672792,0.0189146109312723,0.0081601696672107,0.0295297340710048,-0.0411587580589101,-0.0562081936612915,0.0333773041348442,0.0212467861013055,-0.036005187297674,-0.0349567601732365,-0.0628995338981136,0.010210038198277,0.0085102825329372,0.0067355024313211,0.018870470092408,0.005739954455162,0.0,-0.1010925560813566,0.056622879600397,0.0424013700570969,-0.1013749391470963,-0.1925992073599454,-0.2372872677547993,0.2400000000000002,0.0,0.0,0.0,24.17,7.220000000000002,0.91,0.09365,-0.0103400556296368,0.0,0.0058877231644172,0.2103497843794921,-0.2849319999999999,1.0,3.25,1.0,55.5,1.0,15.0,2.0,37.5,-1.0,18.5,-2.0,25.5,0.0,16.5,0.0041611258073959,-0.0255037770772917,0.002829463160648,0.0193798452923797,-0.0168445310576381,0.0078739520271706,-0.0119482374507234,-0.0090689513844311,0.003329016246775,0.005289161683643,,,,,,,,,,,,,,,,,,,,,,
2007-08-03,0.0041611258073959,0.0007214374031848,0.0045141836980576,0.0165960077858551,0.0008944556451812,-0.0007045197449866,-0.0255037770772917,0.0401867221590592,0.0351397836973241,-0.0793498963136456,0.0141907483810578,-0.1053919166268983,0.002829463160648,0.0320092107916996,0.0224221641516162,-0.0580073531835423,-0.0293618425182712,-0.06821450030501,0.0193798452923797,0.0262889818406066,0.0201630941279995,0.0262833714927817,0.0036053140188673,-0.0292575632623425,-0.0168445310576381,0.0367244221009184,0.0291543214419524,-0.1181511037258419,-0.0868083013504208,-0.1124850866549013,0.0078739520271706,0.0067068718623989,0.0065764876865002,0.0092330270761669,-0.0206784604922176,-0.022589829579643,-0.0119482374507234,0.0266968375497531,0.0193609098157818,-0.0299145676009254,0.0143699633035777,-0.0525470504018784,-0.0090689513844311,0.0289164961296887,0.0213008385369541,-0.0618840387914734,-0.0436286586832824,-0.0713596323726924,0.003329016246775,0.0038579016359999,0.0067210553460486,0.0295635572880367,0.0113543546651931,0.0,0.005289161683643,0.0477983253583858,0.0423214075445904,-0.1298977553859611,-0.194274114725531,-0.2332424694291298,0.25,0.003455454580022,0.0,-1.899999999999992,25.16,0.9899999999999984,-0.04,0.1118499999999999,0.007374781511535,0.0,0.0040955775771278,-0.0352335708630245,-0.2849319999999999,1.0,3.75,-5.0,56.5,6.0,18.0,8.0,42.5,1.0,19.25,2.0,25.75,-1.0,16.75,-0.0056899569041683,-0.0015671306725639,-0.0159236509980017,-0.0018010322241667,0.0353334510447518,-0.0050383979830113,-0.0029571139149622,0.0063086561347988,-0.0092155942161807,0.0368604492717143,,,,,,,,,,,,,,,,,,,,,,
2007-08-10,-0.0056899569041683,0.0049969133692006,0.0046249843543312,0.006914188859455,-0.0001802342624532,-0.0063743221994232,-0.0015671306725639,0.0271265144933863,0.0350957943311745,-0.112936682956666,0.0055032726687165,-0.1067927864345545,-0.0159236509980017,0.0266756926373336,0.0226944967109161,-0.0865762923251041,-0.0472791963146159,-0.0829344189497123,-0.0018010322241667,0.0255980550748378,0.0196715445526736,0.008144855308947,0.0158986327187658,-0.0310043282101261,0.0353334510447518,0.0483707222440329,0.0316360490352102,-0.0839965029598707,-0.0440392221521759,-0.0805655286112546,-0.0050383979830113,0.0072807906502164,0.0064757206643741,-0.0005527820480289,-0.0189721561271323,-0.0275020258195268,-0.0029571139149622,0.0199983215108538,0.0193839465718067,-0.0539338455407406,0.0129107631331783,-0.0553446382712679,0.0063086561347988,0.0271502755177563,0.0210096784688927,-0.067725076714551,-0.048918111273934,-0.0654826411536724,-0.0092155942161807,0.0093882613051853,0.0068404753344638,0.0154527310692901,0.0104325031438222,-0.0091732607702289,0.0368604492717143,0.0591653824618502,0.0423145979909592,-0.0870242450412565,-0.0962760137374885,-0.2044520888886617,0.3399999999999998,0.0,0.0,0.0,28.3,3.140000000000001,-0.1200000000000001,0.1201899999999999,-0.0055247793478048,0.0,-0.0019972055740863,0.025441116126385,-0.2849319999999999,1.0,4.5,1.0,56.5,2.0,21.25,2.0,47.0,1.0,20.0,6.0,26.0,0.0,16.5,0.0075117561627258,-0.0424396428204322,-0.0265800906424468,-0.0237128839519227,0.0044741555115772,-0.0009722351361554,-0.0207291057878691,0.0,0.0111079928155115,0.0108579170644174,,,,,,,,,,,,,,,,,,,,,,
2007-08-17,0.0075117561627258,0.0056438641898413,0.0050923187742822,0.0093309188716229,0.0082375497375934,0.0,-0.0424396428204322,0.0271669913943322,0.0371853565306885,-0.1354309645228568,-0.0282268850633161,-0.1439070529879526,-0.0265800906424468,0.0261919670562631,0.0235928411458989,-0.0992983262484863,-0.0719902599745297,-0.1069890025139706,-0.0237128839519227,0.023313037847544,0.0208040076359959,-0.0387709713043618,0.0010773328069073,-0.0537117172623998,0.0044741555115772,0.0500698743308194,0.0314881973099055,-0.0598961782509996,-0.048821225216794,-0.0764426194128202,-0.0009722351361554,0.0067301140407043,0.0064741226737388,-0.0055745911229284,-0.0176850125900816,-0.0284470630462259,-0.0207291057878691,0.0167308989856417,0.0203271627266907,-0.0776642203775878,-0.0022369704133477,-0.0747249371008107,0.0,0.0283553956358463,0.0210299209407955,-0.0589684889109238,-0.0428059500680599,-0.0654826411536724,0.0111079928155115,0.0093827763226577,0.0074537771723216,0.0154314530443829,0.02043703540848,0.0,0.0108579170644174,0.0609541486937724,0.042618771298507,-0.0480850280615819,-0.0852844631372055,-0.1957670301517665,0.5,0.0,0.0,0.0,29.99,1.6899999999999975,0.3600000000000003,0.11813,-0.0006031523375619,0.0,0.0072067178148185,-0.0526210484193677,-0.2849319999999999,3.0,6.0,2.0,56.25,9.0,25.75,5.0,51.25,1.0,20.5,-7.0,25.75,0.0,16.25,0.0016166550591896,0.0691285514342589,0.0476281809027573,0.0167788935014447,0.015438716887398,0.0139050718208846,0.0400006853741798,0.0247075427022341,0.00288148394661,0.022958777503182,,,,,,,,,,,,,,,,,,,,,,
2007-08-24,0.0016166550591896,0.0056063127295726,0.0049575950165965,0.0075995801251429,0.0129021297717859,0.0,0.0691285514342589,0.0491010589466356,0.0414284059255846,-0.0003819991360289,0.0066632332255368,-0.082633096923279,0.0476281809027573,0.0327653130439881,0.027624162950723,0.0079539024229567,-0.04130241073054,-0.0634273668949129,0.0167788935014447,0.0199526622362236,0.0202685943815822,0.010644822617735,-0.0049792909132733,-0.0377000939292893,0.015438716887398,0.021770688408489,0.0306688181480558,0.038401792386089,-0.0598210837807284,-0.0620734430733589,0.0139050718208846,0.0085541471758948,0.0076581761484461,0.0157683907288884,0.0021334060252508,-0.0148431874393123,0.0400006853741798,0.0269350426695725,0.0227189757621221,0.0043662282206251,0.0166743612549837,-0.0369630854025747,0.0247075427022341,0.0142838751760694,0.0219271032458191,0.0219472474526017,-0.0337316062239454,-0.0421054058158312,0.00288148394661,0.0083921736922241,0.0071628276653551,0.0081028987927159,0.0281854480294732,0.0,0.022958777503182,0.0140112798076516,0.0386398143962032,0.0759663055229567,-0.1211962960356701,-0.1770892350891979,0.33,0.0,0.0,0.0,20.72,-9.27,-0.1900000000000004,0.09472,-0.0024926843875406,0.0,0.0010799275122799,0.0225976768743401,-0.2849319999999999,-1.0,7.0,-3.0,55.0,-13.0,26.75,-16.0,51.0,-4.0,20.25,-1.0,25.75,0.0,16.0,0.0077433741809721,0.0222693330977882,0.0020421370525718,0.0061825732818483,-0.0112394702096502,0.0088784693040507,0.0138049311793287,-0.0050011474756772,0.0039610709264784,0.0044721184544685,,,,,,,,,,,,,,,,,,,,,,
2007-08-31,0.0077433741809721,0.0063276426722437,0.0040593396093219,0.0111818284987193,0.0300176979522318,0.0,0.0222693330977882,0.0466075088725378,0.0405479274397275,0.0473911110390511,0.0603914065846292,-0.0619747780313601,0.0020421370525718,0.0327609415081173,0.0269263934479579,0.0071665763148807,-0.0159395495121232,-0.0615128029828346,0.0061825732818483,0.0171626659975695,0.0173234709702112,-0.0025524493927964,0.0351878961901852,-0.031732174701815,-0.0112394702096502,0.0195703833815717,0.0302764350356301,0.0440068532340768,-0.0489766371441105,-0.0725562198864869,0.0088784693040507,0.0087211681973541,0.0071522084767084,0.0167729080057686,0.0220219591593089,-0.0060575591659881,0.0138049311793287,0.0258345813983164,0.0226036552141193,0.0301193968506773,0.041714513842703,-0.023576237416284,-0.0050011474756772,0.0129881684665934,0.0212817534266551,0.0260150513613558,-0.0188055813907123,-0.0468840187135754,0.0039610709264784,0.008430754428966,0.0065180597719612,0.0087349534724193,0.0392540004742826,0.0,0.0044721184544685,0.0142809836913391,0.0377250266308024,0.0751492622937822,-0.0779083322295522,-0.1734008393470024,0.3899999999999997,0.0,0.0,0.0,23.38,2.66,0.2599999999999998,0.0519199999999999,0.0117040943467299,0.0,-0.0044098172447528,0.0510119785212721,-0.2849319999999999,0.0,7.75,0.0,55.0,-5.0,25.0,-4.0,47.75,-2.0,19.25,-23.0,19.5,0.0,16.0,0.0081067635959538,-0.0135291342908453,-0.0139968848308325,0.0422401522558001,-0.0129095591322893,0.0048393813509314,-0.0131827113417459,-0.0103525928951689,0.0146831073541306,-0.0266918589722272,,,,,,,,,,,,,,,,,,,,,,
2007-09-07,0.0081067635959538,0.0030950248471808,0.0043586043147659,0.0249785489988415,0.0362835702443322,0.0,-0.0135291342908453,0.0481145687023751,0.0383531253581628,0.0354291074207697,-0.0020408091636427,-0.0745799861824514,-0.0139968848308325,0.032426099179527,0.0266992593235768,0.0090933424820499,-0.0437714008917364,-0.0745571967928401,0.0422401522558001,0.0273005373734989,0.0206962577703509,0.0414887350871706,0.0676658688824048,0.0,-0.0129095591322893,0.0135014591537771,0.0295549263839474,-0.0042361569429644,-0.0795920801669364,-0.0844521593298384,0.0048393813509314,0.0062975738351338,0.007160478589546,0.0266506873397113,0.0273423042124608,-0.0012358349831106,-0.0131827113417459,0.0276596568216543,0.0225223672076741,0.0198937994238934,0.0097927798271771,-0.0363636782678215,-0.0103525928951689,0.0155002894338098,0.0205039367094331,0.009353802331388,-0.0468095298941828,-0.0567003405848496,0.0146831073541306,0.0056784774432224,0.0071188842533345,0.0326336550427307,0.0550580729869053,0.0,-0.0266918589722272,0.0211646928513339,0.0381678839024218,0.0115969540498407,-0.0940254319420913,-0.1951724525617989,0.48,0.0,0.0,0.0,26.23,2.8500000000000014,0.1800000000000006,0.01605,-0.0019670673740623,0.0,0.0102168258976209,-0.0793869129494989,-0.2849319999999999,1.0,8.5,1.0,55.0,-7.0,21.0,-4.0,43.0,1.0,18.25,14.0,15.25,0.0,16.0,-0.0029986284982088,0.0372834590286721,0.0123378160948913,0.0086095880640104,0.0046206136951373,-0.0056224298693272,0.0203189409218515,0.0191888883665986,-0.0002941281654353,0.0330048723820633,,,,,,,,,,,,,,,,,,,,,,
2007-09-14,-0.0029986284982088,0.0053214303005467,0.0046907189453605,0.0144681643379067,0.0313459143961706,-0.0029941371022379,0.0372834590286721,0.034316010776742,0.0397310096517378,0.115152209269874,0.0426704788420786,-0.0394258654933937,0.0123378160948913,0.0261054171766747,0.0269875341322672,0.0480112492193881,-0.0212318735982473,-0.0630685268672123,0.0086095880640104,0.0164933054625108,0.0205990840978625,0.0738112071031037,0.0773554492801535,0.0,0.0046206136951373,0.0135216499073022,0.0295296098753015,-0.0040896987594043,-0.0581097683261504,-0.0802119778624172,-0.0056224298693272,0.0082906403108078,0.0075173667603982,0.0220004926065395,0.0200840207734198,-0.0068355596758273,0.0203189409218515,0.021975721764653,0.0229020415203611,0.0609418461336142,0.040001066852068,-0.0165833314644335,0.0191888883665986,0.0173895798376005,0.0210834937922467,0.0285426906979864,-0.011020597625511,-0.0384246847392202,-0.0002941281654353,0.0065058608427483,0.0072578336702895,0.0212315340617836,0.0503870025142922,-0.0002940849139871,0.0330048723820633,0.0262311480839775,0.0381724136759625,0.0337439093674867,-0.0186745073265187,-0.1681660013458091,0.4199999999999999,0.0,0.0,0.0,24.92,-1.3099999999999987,-0.1500000000000003,-0.02363,0.0173998686802363,0.0,-0.0016539602357954,0.0149413020277482,-0.2849319999999999,4.0,9.5,11.0,57.25,3.0,15.5,4.0,38.0,1.0,17.25,15.0,16.5,1.0,16.25,-0.0019031126029854,0.0555127027391602,0.030318702055025,0.0330248317208667,0.0360931887135658,-0.0006687979136259,0.0234172270294565,0.0251414558191876,-0.0058882837878369,0.0270888585246231,,,,,,,,,,,,,,,,,,,,,,
2007-09-21,-0.0019031126029854,0.0060090549094636,0.0048661980402193,0.0109483966757317,0.0265920053074675,-0.0048897471733281,0.0555127027391602,0.0292874775523392,0.0424430378411445,0.1015363605747751,0.0967385574371149,0.0,0.030318702055025,0.0185820597442205,0.0283953309271481,0.0307017703716557,-0.0008671182660109,-0.0342269706995015,0.0330248317208667,0.0178852531050164,0.0213806118316245,0.0900571453225257,0.1182842687489174,0.0,0.0360931887135658,0.0227189555461815,0.0318042234003787,0.0165647730667633,-0.0236799681289977,-0.0464075094017218,-0.0006687979136259,0.0063381689129341,0.0074391742014228,0.0074266228720288,0.01385354263986,-0.0074995639143286,0.0234172270294565,0.0166700254280269,0.0236237596725725,0.0443583877888909,0.0568847856767267,0.0,0.0251414558191876,0.0175364667765823,0.0223864428166161,0.0289766038149398,0.0149186639698677,-0.0139428160782737,-0.0058882837878369,0.0087028389391438,0.0078070267368389,0.0124617663273368,0.0394351352124606,-0.0061633401679442,0.0270888585246231,0.0270614932391165,0.0390360825039268,0.037873990388928,0.0124653567647883,-0.145324590716865,0.5800000000000001,0.0,0.0,0.0,19.0,-5.920000000000002,-0.4199999999999999,-0.0566299999999999,-0.0209654817592862,0.0,0.0019253057243864,0.139011566771819,-0.2849319999999999,3.0,11.5,10.0,62.75,9.0,15.5,10.0,39.5,2.0,17.75,-5.0,16.75,0.0,16.5,0.0031027979583533,0.0302281736598709,0.0231503005403069,0.0160443045460259,-0.0089985297416349,0.0087592047902655,0.0206353628521762,0.0040052559326016,0.0042237186260975,0.0050229119490092,,,,,,,,,,,,,,,,,,,,,,
2007-09-28,0.0031027979583533,0.0050994585302029,0.004399742147176,0.0063078204531129,0.0340856567376874,-0.001797326014478,0.0302281736598709,0.0292756820132332,0.041081718507504,0.1094952011368578,0.0775364158622634,0.0,0.0231503005403069,0.0194270197468908,0.0285257079111224,0.0518099338593908,0.0009691569907292,-0.0116082296659796,0.0160443045460259,0.0153890568608033,0.0214553326556056,0.0999188765867034,0.1236497986866888,0.0,-0.0089985297416349,0.0222357436090775,0.0308745604626793,0.0188057135347787,-0.0553385369569863,-0.0549499474557811,0.0087592047902655,0.0062942544477319,0.006704737253942,0.0073073583582436,0.0333132934401795,0.0,0.0206353628521762,0.0173757891986135,0.0232216084359421,0.0511888194617383,0.0513936487114903,0.0,0.0040052559326016,0.0159462355302948,0.0218763574396693,0.0379830072232187,0.002114019793101,-0.0099854849207543,0.0042237186260975,0.0087123314879318,0.0070498603610059,0.0127244140269559,0.0510229247874118,-0.0019567763392011,0.0050229119490092,0.0270289772456727,0.0377006105242918,0.0384247838834685,-0.0163237092087101,-0.1410208317383748,0.6199999999999997,0.0,0.0,0.0,18.0,-1.0,0.0,-0.06516,0.0255470583083257,0.0,0.0011839029662883,-0.1209379615952732,-0.2849319999999999,-5.0,12.25,-8.0,66.25,-6.0,15.25,-6.0,40.5,1.0,19.0,3.0,23.5,0.0,16.75,-0.0074156367612127,0.0497299828993468,0.0193057697683208,-0.0014975240373915,0.0498369011826246,0.0008854827718537,0.0270573817839451,0.0212053067995448,-0.0031048362711383,0.0706334781178222,,,,,,,,,,,,,,,,,,,,,,
2007-10-05,-0.0074156367612127,0.0043207064812935,0.005273888011485,-0.0092145799040536,0.0226781579542428,-0.0091722557621417,0.0497299828993468,0.0115111039054868,0.0423809482596239,0.1727543183270501,0.0952467427911538,0.0,0.0193057697683208,0.007506805428372,0.0288553018408207,0.0851125884585443,0.00762963861549,0.0,-0.0014975240373915,0.0145527200988543,0.0216165243778931,0.0561812002935117,0.1058147906896294,-0.0014964033077798,0.0498369011826246,0.0272401011655483,0.0346664986534591,0.0815521738496925,-0.0066804860531424,-0.0066582212137616,0.0008854827718537,0.0059653257373819,0.006694190628598,0.0033534597791662,0.0294513650708487,0.0,0.0270573817839451,0.0031270047834943,0.023675482776861,0.0914289125874297,0.0573888664705825,0.0,0.0212053067995448,0.0092561495821294,0.0224749372189093,0.0695409069179326,0.0111696325347694,0.0,-0.0031048362711383,0.0043138680109841,0.0073551483312611,-0.005063529598313,0.0430228565137079,-0.0050507315425396,0.0706334781178222,0.0272667190087752,0.042965732652409,0.135750120973518,0.0603228299821022,-0.0781540301894068,0.5700000000000003,0.0045377251692173,0.1000000000000005,-2.5,16.91,-1.09,-0.1400000000000005,-0.06057,-0.0234284751095629,0.0,0.0022346689062122,0.1405166981726529,-0.2849319999999999,-1.0,12.5,0.0,69.5,2.0,17.25,7.0,44.25,0.0,20.0,4.0,27.75,1.0,17.25,0.0058482778915476,0.015352055233097,0.0088681645085805,0.0160824444615406,-0.003692159213046,-0.000760625793882,0.0133522112096952,0.003075519481725,-0.0039565992847702,-0.0284354033545631,,,,,,,,,,,,,,,,,,,,,,
2007-10-12,0.0058482778915476,0.0058426426574435,0.0053197877818297,-0.0003676735142971,0.0234314096952325,-0.0033606423703556,0.015352055233097,0.0184144106641593,0.0414852742049239,0.1508229145314751,0.1305441592784922,0.0,0.0088681645085805,0.0089465992091167,0.028561850891522,0.0816429368722336,0.0303558598431354,0.0,0.0160824444615406,0.0140947636062914,0.0212808800361521,0.0636540566910418,0.0986942924897839,0.0,-0.003692159213046,0.0290977553864987,0.0341713015854528,0.0732394009415094,0.0092535239311052,-0.0103190349018224,-0.000760625793882,0.0045336133673714,0.0067338801594103,0.0082152638546112,0.0246411653382225,-0.0007603365914125,0.0133522112096952,0.005805258850575,0.0237929591449839,0.0844621828752733,0.0677398086312996,0.0,0.003075519481725,0.0114547410456777,0.0222699115081797,0.0534275380330588,0.0230017398201214,0.0,-0.0039565992847702,0.0044260817524559,0.0072367864940271,-0.0087260007176479,0.0279369863885187,-0.0089795695622619,-0.0284354033545631,0.0415379666521662,0.0429906526867612,0.0743098452368917,0.0599687265427963,-0.1039979102317565,0.4699999999999997,0.0,0.0,0.0,17.73,0.8200000000000003,-0.1899999999999995,-0.04032,0.0199205800350037,0.0,0.0021292211389636,-0.1935543278084714,-0.2849319999999999,-2.0,11.25,3.0,70.75,-3.0,17.75,1.0,47.25,3.0,21.5,-6.0,26.75,0.0,17.5,0.012789334818465,-0.0468481037442854,-0.033028894050804,0.0147717192590092,-0.0580848787518024,0.0161497387883916,-0.0205725747680679,-0.0435364705567444,0.0203078847320532,-0.075925960577329,,,,,,,,,,,,,,,,,,,,,,
2007-10-19,0.012789334818465,0.0083882591810898,0.0061744391487876,0.0143247739071534,0.0328727507080282,0.0,-0.0468481037442854,0.0417536430633357,0.0385360229523946,0.0484621080480294,0.1496164694867757,-0.0457676690991755,-0.033028894050804,0.0257845009775557,0.0239620123285588,0.0182953407664044,0.056951013561017,-0.0324893961153848,0.0147717192590092,0.0085868030936692,0.0169693467736878,0.0454009442291845,0.1461029121694453,0.0,-0.0580848787518024,0.0441307470188095,0.0290192690373891,-0.0209386665238589,0.0340278989289934,-0.0661668752598745,0.0161497387883916,0.0077937489962874,0.0071417604283021,0.025033800556629,0.0482288141575463,0.0,-0.0205725747680679,0.0212126462147274,0.0204567509155099,0.0404723810777487,0.0891969970872646,-0.020362403076855,-0.0435364705567444,0.0277635649369042,0.0193755753418066,-0.015250388342873,0.0356734629246686,-0.0426023633705925,0.0203078847320532,0.011243412541484,0.0086798236596841,0.0174701678022422,0.0380348329222949,0.0,-0.075925960577329,0.0615945009662571,0.0376236028705401,-0.0287049738650606,0.0851353220468239,-0.1695092553126981,0.6100000000000003,0.0,0.0,0.0,22.96,5.23,0.5300000000000002,-0.0068399999999999,-0.0190147828824082,0.0,0.011700346885999,0.1600822105503538,-0.2849319999999999,0.0,9.25,-5.0,68.25,1.0,16.25,5.0,49.0,-3.0,21.75,-4.0,26.0,-1.0,17.5,0.0002982458361708,0.0685544611513547,0.0331468859770349,0.0259484602577425,0.0362544259786595,-0.003753350907229,0.028017081993213,0.0260488258912622,0.0036832178632317,0.0366622415115266,,,,,,,,,,,,,,,,,,,,,,
2007-10-26,0.0002982458361708,0.0085570863626758,0.0061942429111248,0.0115202217849709,0.0290098707368031,0.0,0.0685544611513547,0.050728556609851,0.0396597547443451,0.0867883955395132,0.2436747077154221,0.0,0.0331468859770349,0.0285240992158185,0.0253023625699986,0.0282919262031324,0.0872684363774041,0.0,0.0259484602577425,0.0113688222469388,0.0173250887293192,0.055305099940901,0.1526715271348081,0.0,0.0362544259786595,0.0484347985681537,0.0297838327806947,0.0243142891964355,0.0871268559652911,-0.0316900997351808,-0.003753350907229,0.0088894871261516,0.0073567306367372,0.0125212448591342,0.0366015112231466,-0.0037463158900942,0.028017081993213,0.0227014496031659,0.0202669198297789,0.0478541002187855,0.1291623165312012,0.0,0.0260488258912622,0.0317361656278794,0.0200324069073409,0.0067931816157874,0.070791240200362,-0.0173356232628372,0.0036832178632317,0.0112489637415063,0.008681017341597,0.0169296670393764,0.0383890345387516,0.0,0.0366622415115266,0.065585514727866,0.0385650019034529,0.0029343556974565,0.1165084018747075,-0.1384965796064211,0.6400000000000001,0.0,0.0,0.0,19.56,-3.400000000000002,0.0299999999999993,0.0306299999999999,0.0136697837515196,0.0,0.0115427793227635,-0.0066929133858267,-0.2849319999999999,2.0,9.0,1.0,68.0,-2.0,15.75,-4.0,51.25,1.0,22.0,1.0,24.75,0.0,17.5,0.0020666675826703,-0.0101742633295926,-0.0023568599568337,0.0271728162073286,-0.0307063137107441,-0.0015377542658237,0.0090446421085506,-0.0158781105989167,0.0093877736041071,-0.044362794643184,,,,,,,,,,,,,,,,,,,,,,
2007-11-02,0.0020666675826703,0.0055333226583227,0.0056523022025852,0.021002526128854,0.0367664952236418,0.0,-0.0101742633295926,0.0484870114268745,0.0401659065520743,0.0268841493105737,0.2350675750583934,-0.0101226805994247,-0.0023568599568337,0.0274641349754726,0.0244607916393806,0.006629296477978,0.1008352274185723,-0.0023540847430971,0.0271728162073286,0.0064695337678028,0.0171349191019099,0.0839754401856212,0.1816453755663035,0.0,-0.0307063137107441,0.0402257101149377,0.0302231156061782,-0.056228925696933,0.0210870912097949,-0.0609714652120975,-0.0015377542658237,0.0091715593958698,0.0070706792715349,0.0100980078214566,0.0401021549403342,-0.0052771319315694,0.0090446421085506,0.0203768505195813,0.0198194658996976,0.0298413605433908,0.141164072554714,0.0,-0.0158781105989167,0.0294740802467918,0.020992068306191,-0.030290235782674,0.0486044734666465,-0.0328152580233751,0.0093877736041071,0.0102199747643268,0.007887249798756,0.029422276914622,0.0569924023590396,0.0,-0.044362794643184,0.0474202236770353,0.0404482254499873,-0.1120619170635495,0.0352851579598091,-0.1758799330653048,0.6499999999999995,0.0027490015418927,0.0,-4.800000000000011,23.01,3.450000000000003,0.2600000000000007,0.06678,0.0022577845347431,0.0,0.0036820992700319,-0.0190249702734839,-0.2849319999999999,0.0,9.0,6.0,69.25,1.0,15.0,-13.0,48.5,3.0,23.0,4.0,23.5,1.0,17.5,0.0024831363035021,-0.0492239696320021,-0.036402891291639,0.0290125705741361,-0.0342793907082236,0.0017015475523504,-0.0847082794124843,-0.0409052901045133,0.0128968659578382,-0.0388130216426048,,,,,,,,,,,,,,,,,,,,,,
2007-11-09,0.0024831363035021,0.0056663857709754,0.0054762302661062,0.0176373845408084,0.0317378753644182,0.0,-0.0492239696320021,0.0549721275378582,0.0411539644933644,-0.0376918755545256,0.2282832482468235,-0.0576685730097253,-0.036402891291639,0.0323885411041276,0.0258621221531037,-0.0386417593222416,0.0910124267693801,-0.0380182036883904,0.0290125705741361,0.0064276817147037,0.0123627056607248,0.0969055662982165,0.2343708300923624,0.0,-0.0342793907082236,0.0405048539654285,0.0319287691039539,-0.0868161571921106,-0.0176664550100057,-0.0926153264972096,0.0017015475523504,0.0089577177242076,0.0069636920792389,0.0125601811676891,0.04277593762884,-0.0035831228603631,-0.0847082794124843,0.0493356647221215,0.0333451225610821,-0.0682191300787885,0.0771848989300989,-0.0812197275683843,-0.0409052901045133,0.0322504558548125,0.0247027886894674,-0.0742710453689124,0.0076991833621331,-0.0715799842109424,0.0128968659578382,0.0069540070665334,0.0080338983433457,0.0462757421572306,0.0587812755013665,0.0,-0.0388130216426048,0.0477337046734061,0.0420732178783315,-0.1224395353515913,-0.014385780747213,-0.2072537286648607,0.8100000000000005,0.0,0.0,0.0,28.5,5.489999999999998,0.3699999999999992,0.09793,0.0026477696587559,0.0,-0.0023581053271923,0.0341414141414142,-0.2849319999999999,4.0,10.5,2.0,70.25,6.0,16.5,9.0,47.75,0.0,23.25,2.0,24.25,0.0,17.5,0.0018835457587326,0.0013010259999943,-0.005029018623437,-0.0554134161094244,-0.0073134079430874,-0.0057786517950067,0.0055843651003636,0.0044691895293119,-0.0021856600630916,0.0028773687047464,,,,,,,,,,,,,,,,,,,,,,
2007-11-16,0.0018835457587326,0.0009565879595125,0.0054722153986904,0.0067315954810759,0.032004766063961,0.0,0.0013010259999943,0.0489917785338865,0.0381984526632762,0.0104572541897542,0.1604557228125588,-0.0564417774491853,-0.005029018623437,0.0284395261231526,0.0227273735525254,-0.0106418838948747,0.0383552272431854,-0.0428438836696708,-0.0554134161094244,0.0414148327267419,0.0249653722838054,0.0267204309297828,0.1621785204814931,-0.053906063381905,-0.0073134079430874,0.0324603286782213,0.0315060043162539,-0.0360446863833955,-0.0404185798404909,-0.0992271936647774,-0.0057786517950067,0.0032041418477524,0.0066161584776157,-0.0093682094157092,0.0230922140129485,-0.009324464452451,0.0055843651003636,0.0504352165573514,0.0316314418708718,-0.0420621902103569,0.0427685786562826,-0.0760745702326117,0.0044691895293119,0.0285855705095759,0.0235755143942257,-0.0262653852828559,-0.012539169810789,-0.0674214133988284,-0.0021856600630916,0.0066182681690793,0.0082789736096319,0.0237821973620857,0.0537141314916647,-0.0021832732473752,0.0028773687047464,0.0380827072779754,0.0414192895732496,-0.0436362060695157,-0.0344671895456484,-0.2049694205305774,0.8200000000000003,0.0,0.0,0.0,25.49,-3.0100000000000016,0.3500000000000005,0.11076,0.0043049527843888,0.0,0.010566746469385,0.0046884157061926,-0.2849319999999999,-1.0,11.75,-3.0,71.75,-1.0,17.5,-1.0,45.5,-6.0,22.75,-4.0,25.0,0.0,17.75,0.0025702191553077,-0.0426386810521593,-0.0027092433830161,0.0440322701505033,-0.0162542485023926,0.0033201743211496,-0.0087897299354462,-0.0114522978618041,0.0148252999661534,-0.0289913725650498,,,,,,,,,,,,,,,,,,,,,,
2007-11-23,0.0025702191553077,0.0003290335066725,0.0052345606703235,0.0090035688002127,0.0268316110382964,0.0,-0.0426386810521593,0.024558330749954,0.0412940634435953,-0.1007358880137598,0.0955477086626111,-0.0958281960356284,-0.0027092433830161,0.0165614009281269,0.0227906088086816,-0.0464980132549259,0.0336038468075974,-0.0454335429517072,0.0440322701505033,0.0450471001381091,0.0263095787585132,0.0448042408225437,0.2000282173501482,-0.0113166257206403,-0.0162542485023926,0.0125859237384726,0.0316528167954355,-0.0885533608644477,-0.0454333581332335,-0.1137502284468423,0.0033201743211496,0.0040149691765454,0.0062705885807475,-0.0022946841873304,0.0175339190300473,-0.0060297825461965,-0.0087897299354462,0.0440100850684873,0.0316389089977037,-0.0788690021390162,0.0201739175415076,-0.0841600386424587,-0.0114522978618041,0.0187966665256824,0.0237468604532511,-0.0637665090359222,-0.018990320196916,-0.0780406577138699,0.0148252999661534,0.0076179557567797,0.0087954455497406,0.0349242794650074,0.0645783605313398,0.0,-0.0289913725650498,0.0211125628837422,0.0420022550175026,-0.1092898201460921,-0.0679306805651668,-0.2276875423022299,0.94,0.0,0.0,0.0,25.61,0.120000000000001,0.4299999999999997,0.11241,0.001676152875035,0.0,-0.0050796210309286,-0.0357767839782228,-0.2849319999999999,-1.0,12.25,-2.0,72.5,4.0,20.0,5.0,45.5,-1.0,21.75,-4.0,24.5,-4.0,17.0,0.0073812837064766,0.0465321845102227,0.0229168780303441,-0.0495781708166357,0.0209621617887568,0.0095179106032057,0.029068161408362,0.0309465781854241,9.301249636809196e-05,0.0276295739841274,,,,,,,,,,,,,,,,,,,,,,
2007-11-30,0.0073812837064766,0.0025528076901858,0.0051643097895337,0.0143181849240191,0.0261061311488193,0.0,0.0465321845102227,0.0444347659370392,0.0420846939210297,-0.0440294401739444,0.1556090274636794,-0.052760869082091,0.0229168780303441,0.0242924361061323,0.0228085071174011,-0.0212242752677482,0.070517609668774,-0.0233052728920289,-0.0495781708166357,0.0518139721315636,0.0311103462001258,-0.0319467462014206,0.108209894277712,-0.0591384837223646,0.0209621617887568,0.0230365773803915,0.0322695197865882,-0.0368848853649468,-0.0115616372121873,-0.0949764351519031,0.0095179106032057,0.0062905634296673,0.0066346054975181,0.0087609806816991,0.0222124482823218,0.0,0.029068161408362,0.0492043269843671,0.0321807085440846,-0.0588454828392049,0.0624247902916156,-0.0571475552150654,0.0309465781854241,0.0300572005955652,0.0253020672345658,-0.0169418202515815,0.0223088508836771,-0.0490631053905203,9.301249636809196e-05,0.0086926478330898,0.0083919242836618,0.0256295183572681,0.0499882656735771,0.0,0.0276295739841274,0.0303910511444477,0.0424543985589855,-0.0372974515187806,-0.0136092476088121,-0.2060513551897434,0.9300000000000002,0.0,0.0,0.0,22.87,-2.7399999999999984,-0.0499999999999998,0.0933199999999999,-0.013031015860332,0.0,-0.0047349847792453,0.0437588223432143,-0.2849319999999999,4.0,13.75,6.0,73.25,1.0,22.5,10.0,51.25,4.0,21.0,6.0,24.5,4.0,17.0,-0.0072409692511373,0.0358149623271936,0.0069653401742801,0.0164190296287319,0.0237212709730047,-0.018951488096552,0.0196839734211243,0.015021371920402,-0.0173207452847954,0.0227520532776802,,,,,,,,,,,,,,,,,,,,,,
2007-12-07,-0.0072409692511373,0.0061044345812402,0.0056710560494362,0.0045940793693795,0.0218637903958908,-0.0072148165948872,0.0358149623271936,0.0401964381016983,0.042009627482167,0.0410094917852514,0.1541405307622009,-0.0182206998744509,0.0069653401742801,0.0126983147359242,0.0227227144914303,0.0221439561981709,0.0651451337481629,-0.0164785141232828,0.0164190296287319,0.049129447246417,0.0311826352499543,-0.0445402871468249,0.1160193358424336,-0.0435629328031191,0.0237212709730047,0.0200692837539731,0.0330320677406316,0.0211157763162812,0.0075390200656799,-0.0732514727813317,-0.018951488096552,0.0123667653353572,0.0087712595132759,-0.0118920549672034,0.008883390055097,-0.0187730377241329,0.0196839734211243,0.0165553036717097,0.0321541036017021,0.0455467699944038,0.0617898227908885,-0.0384046101079071,0.015021371920402,0.0178372888924581,0.0250701142527538,0.038984841773334,0.0181413344374804,-0.0346709039406731,-0.0173207452847954,0.0131570114192886,0.0104110361024408,-0.0045880928853655,0.0329616485542172,-0.0171716034999191,0.0227520532776802,0.025707319543754,0.041803060244479,0.0242676234015047,-0.023862066713195,-0.1877803298205427,1.0,0.0,0.0,0.0,20.85,-2.02,-0.1200000000000001,0.06292,0.0038059305198785,0.0,0.0071033647571918,-0.0523570324574961,-0.2849319999999999,-5.0,13.0,0.0,73.5,-6.0,22.0,-14.0,51.25,0.0,20.25,2.0,24.5,1.0,17.25,-0.0047710469226162,-0.0653931123631798,-0.0442887836993984,-0.0010183533662765,-0.0454830451593947,-0.0099367108028452,-0.0263327577261508,-0.0250947457885055,-0.0011504423449345,-0.0732091300213452,,,,,,,,,,,,,,,,,,,,,,
2007-12-14,-0.0047710469226162,0.0067137290015393,0.0058981963876457,-0.0020605133119692,0.0189958560762601,-0.0119401599081194,-0.0653931123631798,0.0559086955691889,0.0452220704367536,-0.0256846465779226,0.033234715659861,-0.0803681513522242,-0.0442887836993984,0.0286897071862388,0.0253484946451341,-0.0171158088777903,-0.0094623520062606,-0.0590869814108045,-0.0010183533662765,0.0393411500558246,0.0304033811450421,0.009854775596323,0.0819761507552903,-0.0445364279449736,-0.0454830451593947,0.0329763065037229,0.0334612742242713,-0.0170538609000259,-0.0740372138072804,-0.1144586015018942,-0.0099367108028452,0.01284665666978,0.0092987768287836,-0.0160501139750419,-0.0003845228341221,-0.0284749240321946,-0.0263327577261508,0.0255385230493599,0.0327856442329775,0.0136296471678894,0.0120398380352812,-0.0633955838377329,-0.0250947457885055,0.0253116925461462,0.0249597057219029,0.0094209064555164,-0.0320948671702126,-0.0585941627078687,-0.0011504423449345,0.0131399413333577,0.0101401075500538,-0.0035528751672084,0.0376994899971194,-0.0183016407590644,-0.0732091300213452,0.0476439108687432,0.0453381550549394,-0.0518188753245872,-0.1241600552591635,-0.2451178054760301,0.9300000000000002,0.0,0.0,0.0,23.27,2.419999999999998,-0.0899999999999998,0.0265499999999999,-0.0011486648753233,0.0,-0.0040414843848582,-0.0150866462793067,-0.2849319999999999,5.0,13.75,-4.0,73.5,-2.0,21.25,14.0,55.0,-1.0,20.75,-4.0,24.5,0.0,17.5,0.0035794622551101,0.0251644614077069,0.0039954587098121,0.0199225083689726,0.0468831280219574,0.0146292066794599,0.0181595911276682,0.0117950169614721,0.0073541465757208,0.0093449032585765,,,,,,,,,,,,,,,,,,,,,,
2007-12-21,0.0035794622551101,0.0068851078752195,0.0059109534684221,-0.0010512702121667,0.0194725203730168,-0.0083970996624808,0.0251644614077069,0.0513613767352986,0.0449654529778969,0.0421184958819437,0.0281710034076969,-0.0569324748059823,0.0039954587098121,0.0290061000949401,0.0242847713047802,-0.010411106784962,-0.0286171938367554,-0.0553200820612322,0.0199225083689726,0.0320141728040252,0.0305305629154666,-0.0142549861852077,0.0858543545782369,-0.0253103166625771,0.0468831280219574,0.0397405058282402,0.0367579348142151,0.0460835156243241,-0.018155556043688,-0.0719530393053412,0.0146292066794599,0.0158837649740227,0.0099358604723443,-0.0047410816167316,0.0054854790550722,-0.0141578142598387,0.0181595911276682,0.0247920587488625,0.0326584151622306,0.0405789682310037,0.0095640663107731,-0.04623185915254,0.0117950169614721,0.0237023053498226,0.0252488491484097,0.0326682212787925,-0.0243051061413422,-0.0474245213299589,0.0073541465757208,0.010408995413928,0.0102104998427499,-0.011024028557641,0.0408299179467428,-0.0110554751080272,0.0093449032585765,0.0471964267713963,0.0454882689439335,-0.0134825995009607,-0.1198380639495963,-0.2380304406036151,0.9899999999999998,0.0,0.0,0.0,18.47,-4.800000000000001,0.1399999999999996,-0.0104699999999999,0.007068897079671,0.0,-0.0002978902317403,0.552473607948665,-0.2849319999999999,-1.0,14.5,-4.0,73.0,-2.0,19.0,-34.0,49.0,-2.0,21.0,1.0,25.75,-1.0,18.5,0.0080430503412892,0.0023493566654037,0.0092844810595142,0.0355647727719587,-0.0229341201996289,0.0042825804612395,-0.0005792300640996,-0.0056187433965741,0.005197259959197,-0.0227060708188222,,,,,,,,,,,,,,,,,,,,,,
2007-12-28,0.0080430503412892,0.0071334845389613,0.0054267677165863,-0.0003895035773542,0.0349312074755188,-0.0003894277306837,0.0023493566654037,0.0454484136104139,0.0424356655736619,-0.0020643319628752,-0.019209622826246,-0.0547142681707483,0.0092844810595142,0.02561025241284,0.0236346710272883,-0.0240435037557917,-0.038638482545562,-0.0465083764976164,0.0355647727719587,0.0150122766800435,0.0314369268386941,0.0708879574033867,0.1229166513875872,0.0,-0.0229341201996289,0.0422461503502823,0.0333621439215299,0.0021872336359385,-0.0909265774259415,-0.0929947707780856,0.0042825804612395,0.0148926056398884,0.0099973791936419,-0.0099764117586978,0.0088825767444577,-0.0099268124410157,-0.0005792300640996,0.0214561906675902,0.0315953549908504,0.010931576758542,-0.0180725455372718,-0.0467841503666201,-0.0056187433965741,0.0184597195296986,0.024169538342279,-0.0038971003032056,-0.051129156337461,-0.0527617900970736,0.005197259959197,0.0111604325737224,0.0100087665911761,-0.005919781094812,0.0491320141770781,-0.0059022937148767,-0.0227060708188222,0.0426690107660729,0.037775884233226,-0.0638182443039104,-0.2131776128862406,-0.2551368309761362,0.9900000000000002,0.0,0.0,0.0,20.74,2.27,0.0500000000000007,-0.0395999999999999,0.0030169496488108,0.0,0.0031571877175686,-0.3453333333333334,-0.2849319999999999,-5.0,13.0,-28.0,64.0,-3.0,15.75,9.0,42.75,2.0,20.75,4.0,26.5,-1.0,18.25,0.0097410985503453,-0.0502802051989954,-0.0311160276691408,0.0253388598359815,-0.0601594129181419,0.0185581023627817,-0.0682758908005939,-0.0415156897530115,0.01754175279276,-0.0680444179589042,,,,,,,,,,,,,,,,,,,,,,
2008-01-04,0.0097410985503453,0.0064891396874742,0.0057263998495963,0.0165925642241284,0.0388240281343164,0.0,-0.0502802051989954,0.0428178445531657,0.0442430905192516,-0.0881594994890643,-0.0848418832583384,-0.1010683179472634,-0.0311160276691408,0.0262487707681741,0.024575340934415,-0.0621248715992129,-0.0786226747232835,-0.0757204101100464,0.0253388598359815,0.0154113975417855,0.0317056473678982,0.0798077876106363,0.1321730667620279,0.0,-0.0601594129181419,0.0474110007221646,0.0365904116344456,-0.0816934502552082,-0.1473938311310375,-0.1459508006707812,0.0185581023627817,0.0127276154617158,0.0112150345146926,0.0275331787006359,0.0282013049011217,0.0,-0.0682758908005939,0.0374244945817246,0.0365104134947521,-0.0770282874631762,-0.0997006475475609,-0.1096937700850298,-0.0415156897530115,0.0231726813358742,0.026275192153256,-0.060434161976619,-0.0957203655721974,-0.0912819105938107,0.01754175279276,0.0077612579518655,0.010354753367144,0.0289427169827433,0.0706303662546084,0.0,-0.0680444179589042,0.0392262022861112,0.0404302208564751,-0.1546147155404951,-0.2527866274905818,-0.3041346925606353,1.1399999999999997,0.0052243017022477,0.2999999999999998,2.300000000000012,23.94,3.200000000000003,0.6299999999999999,-0.04771,0.0353950207822946,0.0,0.0016956449867193,0.7704684317718942,-0.2849319999999999,10.0,15.25,22.0,60.5,9.0,16.25,-2.0,39.5,3.0,21.25,3.0,27.5,8.0,19.75,0.0037131313366193,0.0149564532979017,-0.0185860433770101,0.0397266515336701,-0.0262819120385001,-0.0008452591483929,-0.0282888248509003,-0.0082424821399357,0.0027076562674943,0.0069991157580884,,,,,,,,,,,,,,,,,,,,,,
2008-01-11,0.0037131313366193,0.0031074534442507,0.0048877658736135,0.0250767424833638,0.0297478246524705,0.0,0.0149564532979017,0.0335425866533241,0.0427641855387949,-0.0078099338279828,-0.0230373262161513,-0.0875224416048754,-0.0185860433770101,0.0190102652399396,0.0234904764051137,-0.0364221312768246,-0.0641798240494896,-0.0927404530828277,0.0397266515336701,0.009106410130106,0.0327748627837135,0.120552792510583,0.157127999036689,0.0,-0.0262819120385001,0.0449354092014502,0.0340338076303747,-0.0624923171343135,-0.1155908644177351,-0.1681044512715516,-0.0008452591483929,0.0089838915593607,0.0103539997297785,0.0366246303550881,0.011206306964337,-0.0008449020175088,-0.0282888248509003,0.0375603029186977,0.0368127437297871,-0.0789843545879257,-0.1074168976303933,-0.1345265854721988,-0.0082424821399357,0.0222661046174398,0.0237907748297155,-0.0435818983280492,-0.0604263771553888,-0.0987412193751276,0.0027076562674943,0.0065106605020469,0.009321150943434,0.0328008155951722,0.0530301377900493,0.0,0.0069991157580884,0.0360455388831348,0.0371551344571002,-0.0744064697610613,-0.1698615511551643,-0.2992471664938133,1.23,0.0,0.0,0.0,23.68,-0.2600000000000015,0.3199999999999994,-0.0447899999999999,-0.0449290653630988,0.0,-0.0018885353590255,-0.4080294489819395,-0.2849319999999999,24.0,22.25,12.0,61.0,3.0,18.0,11.0,35.5,0.0,22.0,-3.0,28.75,-2.0,20.75,0.007192916808688,-0.0811781053601923,-0.0469891018968638,-0.0131820506765707,-0.0436624776000494,0.0027200392344063,-0.0368010995918683,-0.0594569862602361,0.0114935739249799,-0.0403860055989175,,,,,,,,,,,,,,,,,,,,,,
2008-01-18,0.007192916808688,0.0025379259770598,0.0050117766587856,0.0286901970369417,0.0366424956249877,0.0,-0.0811781053601923,0.045053673356135,0.0421722392598063,-0.1141525005958822,-0.1727698927276984,-0.1586688110026386,-0.0469891018968638,0.0237896547924574,0.0229361828081354,-0.0874066918835005,-0.1443158119233886,-0.1343856664398963,-0.0131820506765707,0.0241321762949172,0.0333217126582418,0.0874482334650397,0.1179974881023756,-0.0130955479581249,-0.0436624776000494,0.0171962033810609,0.0319964381677629,-0.1530379227563205,-0.1955077679964441,-0.2036455203207006,0.0027200392344063,0.0085272740557343,0.0102557604819115,0.0247154629100344,0.0176796971059725,0.0,-0.0368010995918683,0.0278758708329909,0.0356316748428457,-0.1339450453074623,-0.1722350792154746,-0.1657980180258139,-0.0594569862602361,0.0262137893974212,0.0263062346340451,-0.1148339015497574,-0.1459321893068872,-0.1507654239646979,0.0114935739249799,0.0066586499872785,0.0095353141257585,0.0369402429444312,0.0608404938517975,0.0,-0.0403860055989175,0.0314806996134387,0.0341074441143337,-0.1241373786185555,-0.2469097982656085,-0.3269839162339436,1.3000000000000005,0.0,0.0,0.0,27.18,3.5,0.3600000000000003,-0.02366,0.0145636579567052,0.0,0.0019514208298967,0.0048581422464049,-0.2849319999999999,16.0,33.5,3.0,63.25,13.0,23.5,9.0,42.25,-1.0,23.0,7.0,31.5,0.0,22.0,-0.002230458831352,-0.0151812124611808,-0.0143259545493334,0.0324134257290277,0.0184250091556129,0.0056946563258383,-0.0304477691912612,0.0073937879538376,0.0064307927450708,0.0847238093259912,,,,,,,,,,,,,,,,,,,,,,
2008-01-25,-0.002230458831352,0.0051831697551729,0.0052371480884761,0.0184166878643006,0.0323453692109653,-0.0022279732064243,-0.0151812124611808,0.0417813388124586,0.0421514205999305,-0.1316830697224669,-0.1777768418592865,-0.1713447768172155,-0.0143259545493334,0.0146703352379235,0.0227368442454344,-0.1110171274923483,-0.1562849065158884,-0.1466980143968545,0.0324134257290277,0.0235808539729486,0.0336027844000821,0.0842968864221086,0.1232380976240747,0.0,0.0184250091556129,0.0338513837813365,0.0331084505945773,-0.1116787934010787,-0.1463764451300871,-0.1888366741191487,0.0056946563258383,0.0084514945391639,0.0102752180150494,0.0261275387746335,0.0249121076976346,0.0,-0.0304477691912612,0.0185698666717935,0.0350939076475554,-0.1638135844346238,-0.2117274905152866,-0.190814821840453,0.0073937879538376,0.0304925918086871,0.0268592959529195,-0.1018213701993456,-0.1226602907541327,-0.1444630932493078,0.0064307927450708,0.0064340899907532,0.0094514287374954,0.0381737757303051,0.0578835129927612,0.0,0.0847238093259912,0.0668789917821517,0.0446502300201775,-0.0167074984737419,-0.1178231942964331,-0.2674782470594698,1.38,0.0,0.0,0.0,29.08,1.8999999999999984,-0.0499999999999998,0.00747,-0.0182725460814408,0.0,0.0043693809953491,0.0317153355250434,-0.2849319999999999,40.0,56.0,1.0,72.75,49.0,42.0,36.0,55.75,10.0,26.0,4.0,34.25,0.0,23.5,0.0037262973539786,0.0458720462420298,0.0396614099241379,-0.0105762696908176,0.0587069339206826,0.0053504327879631,0.0357265747211159,0.0479877144648028,0.0040337920170832,0.0580017717098904,,,,,,,,,,,,,,,,,,,,,,
2008-02-01,0.0037262973539786,0.0039129671979733,0.00524485643445,0.0124018866679339,0.0335885302614417,0.0,0.0458720462420298,0.0542607419822964,0.0439932338057916,-0.0355308182814417,-0.0826808259852546,-0.1324473340255054,0.0396614099241379,0.0361795013583323,0.0259957993674197,-0.0402396898990695,-0.0802206053001113,-0.1121747594573608,-0.0105762696908176,0.0278643281521508,0.0335386919214869,0.0483817568953095,0.0836492573591209,-0.0105205376027748,0.0587069339206826,0.0460804393505566,0.0379919311988091,0.0071875534377459,-0.0533901205011808,-0.1397901629778209,0.0053504327879631,0.0030242664740116,0.0103170347109106,0.0129198691998148,0.0285609929332474,0.0,0.0357265747211159,0.033978870131498,0.0311732453748477,-0.0598111189129139,-0.0912926363816864,-0.1613827846640349,0.0479877144648028,0.0444320736081429,0.0297321283120499,-0.0123179659815312,-0.0337672861848163,-0.1024068103705688,0.0040337920170832,0.0038712448710558,0.0091030715068302,0.0246658149546283,0.0490204390520061,0.0,0.0580017717098904,0.0554785517407773,0.0475852418605449,0.1093386911950528,-0.0210084009439376,-0.2237343384086017,1.5300000000000002,0.0007858877022608,-0.0999999999999996,-7.600000000000008,24.02,-5.059999999999999,-0.0300000000000002,0.0297799999999999,0.0262307452924071,0.0,0.000293937260386,-0.1283973758200562,-0.2849319999999999,-58.0,61.5,7.0,78.5,-58.0,43.75,-48.0,57.75,-5.0,27.0,-13.0,33.0,0.0,23.0,-0.0023331814446334,-0.0538518280066304,-0.0734703468158384,0.0182982819889611,-0.041332852354756,-0.0124514906487623,-0.0446315133874643,-0.0477623763004531,-0.0042252087405423,-0.0719431815850966,,,,,,,,,,,,,,,,,,,,,,
2008-02-08,-0.0023331814446334,0.0046884146781063,0.005449049787165,0.0063555738866809,0.0293718030580757,-0.002330461692443,-0.0538518280066304,0.0550846502580216,0.0458993733129426,-0.1043390995859738,-0.1378336799918794,-0.1779309515887355,-0.0734703468158384,0.0487236576421776,0.032334585366328,-0.0951239933378978,-0.1486619334925128,-0.1750650162794739,0.0182982819889611,0.0222819804583094,0.0272313714733787,0.0269533873506005,0.1573609554575065,0.0,-0.041332852354756,0.0496163396251893,0.0394657657829061,-0.0078633868785098,-0.0874095649128493,-0.1746203158571643,-0.0124514906487623,0.0086228971059518,0.0109567468324574,0.0013136376994455,0.0218881540794917,-0.0123742915857382,-0.0446315133874643,0.0369679911598794,0.0325800796536663,-0.076153807449478,-0.1415085148695144,-0.1979885778876057,-0.0477623763004531,0.0500069185508402,0.0322827947198004,-0.0518378601420486,-0.0859988520145814,-0.1442702864106534,-0.0042252087405423,0.0065565952898638,0.0092486702425267,0.0177329499465915,0.0469808903745554,-0.0042162951045017,-0.0719431815850966,0.0755385001687124,0.0516517741923739,0.0303963938518675,-0.0958289512337809,-0.2776197751985668,1.7100000000000002,0.0,0.0,0.0,28.01,3.990000000000002,0.29,0.0614,-0.032481583180045,0.0,0.006642956442258,0.1931182795698924,-0.2849319999999999,-4.0,60.0,-15.0,77.5,-4.0,43.75,2.0,57.5,0.0,28.0,1.0,32.75,-1.0,22.75,-0.0078160404450503,0.0447141272021061,0.0325349786007045,-0.0205391450918409,0.0028663949867914,-0.007468651607046,0.0050326814320567,0.0154356443135158,-0.0100870201617642,0.004725208812423,,,,,,,,,,,,,,,,,,,,,,
2008-02-15,-0.0078160404450503,0.0047143115982631,0.0062008237772885,-0.0086533833670572,0.0189855434577177,-0.0100978923356483,0.0447141272021061,0.048709862122745,0.0474115351352589,0.0215531329763247,-0.0504808717376137,-0.1403386615157528,0.0325349786007045,0.0521978217443074,0.0348003358359742,-0.0155999128403294,-0.113417711508792,-0.1477843933884453,-0.0205391450918409,0.0246520288462803,0.0269445336157266,0.0195962929353303,0.0927895402151623,-0.0203296535617702,0.0028663949867914,0.0413475150824766,0.0394566700438094,0.0386654857083308,-0.0682889214236653,-0.1722510576756463,-0.007468651607046,0.0091685145256871,0.0112612308746234,-0.0088750531420067,0.0110993281512961,-0.019723047112761,0.0050326814320567,0.0361768277871213,0.0329382653755397,-0.0343200264255529,-0.1276861035020114,-0.193942136209941,0.0154356443135158,0.0397664512505478,0.0328857707282986,0.0230547704317034,-0.0591109098392616,-0.1309590776734752,-0.0100870201617642,0.0076053894630676,0.009372221492586,-0.0038476441401526,0.0220685702466375,-0.0142102958301624,0.004725208812423,0.0690775618096374,0.0513212357089697,0.0755076082632082,-0.062112369856308,-0.2741983005694874,1.85,0.0,0.0,0.0,25.02,-2.990000000000002,0.0499999999999998,0.08476,0.013757402224054,0.0,0.0008693414526601,-0.0418168709444845,-0.2849319999999999,-11.0,51.75,-1.0,75.5,0.0,40.5,9.0,57.25,-6.0,27.75,-11.0,28.0,-2.0,22.0,-0.0035368053937519,0.0205322623662067,0.0153210578070484,0.0464639051611043,-0.0064613329512249,-0.0047567893641904,-0.0031991949976086,0.0035457002840784,0.0010238385837897,0.0040320116525331,,,,,,,,,,,,,,,,,,,,,,
2008-02-22,-0.0035368053937519,0.0047654818989918,0.0060722313853724,-0.0099597299294572,0.0080674543574892,-0.0135927994030921,0.0205322623662067,0.0469230749314643,0.0454349056044794,0.0572666078037123,-0.0764807938816298,-0.122505417442804,0.0153210578070484,0.0523286049628748,0.0342223440646427,0.0140470995160523,-0.1210135317320876,-0.1346270137016764,0.0464639051611043,0.0302457117927936,0.0222241260434887,0.0336467723674067,0.1888316161929024,0.0,-0.0064613329512249,0.0414624634188431,0.0385565260350804,0.0137791436014932,-0.095712416163647,-0.1775821775743748,-0.0047567893641904,0.0074988035268137,0.0110224191372193,-0.0193264988320356,-0.0031753718161,-0.0243749452748099,-0.0031991949976086,0.0331231112690276,0.0306387337551822,-0.0070714522319004,-0.1599534599079821,-0.1965167519507621,0.0035457002840784,0.0397604169563144,0.0310696849567814,0.0192066827619441,-0.086511787740607,-0.1278722497789985,0.0010238385837897,0.0062050568274999,0.0093603011653738,-0.0092545983014337,0.0229993963340592,-0.0132004894443712,0.0040320116525331,0.0534536954113847,0.0503936667878136,-0.0051841894102498,-0.0857099321879024,-0.2712659520007831,1.81,0.0,0.0,0.0,24.06,-0.9600000000000009,0.0499999999999998,0.0991599999999999,-0.0045934054733551,0.0,0.0020525689635717,-0.2737020316027088,-0.2849319999999999,-7.0,31.75,10.0,75.75,-4.0,24.0,-2.0,47.5,-2.0,24.5,8.0,24.25,0.0,21.25,0.013103729349942,-0.0113945615616825,-0.0012563598001228,0.0294371724363683,-0.0080992448749312,0.013355954961028,-0.0168539460167335,-0.0133612249853111,0.026855557442538,-0.0101113231725819,,,,,,,,,,,,,,,,,,,,,,
2008-02-29,0.013103729349942,0.0091408637710231,0.0064878964454722,-0.0005822979334937,0.0284121529585684,-0.000582128430954,-0.0113945615616825,0.0426254320883654,0.043450351032932,0.0,-0.1236903177705061,-0.1324473340255054,-0.0012563598001228,0.0465912070270152,0.0339310313697181,-0.0268706702082082,-0.1292352317064907,-0.1357135508500571,0.0294371724363683,0.0284351215276253,0.0225754559434186,0.0736602144945926,0.2018497590005385,0.0,-0.0080992448749312,0.019330467141117,0.0372504788557822,-0.0530270351941208,-0.127532932011583,-0.1842162391979755,0.013355954961028,0.0112514862137066,0.0099351108767287,-0.0113209766589707,0.0291320712414799,-0.0112571355444141,-0.0168539460167335,0.0217715467588909,0.0288212926638429,-0.0596519729697498,-0.19649137934584,-0.209945136736891,-0.0133612249853111,0.0274870004375351,0.0302941489871651,-0.0421422566881698,-0.1148943846463201,-0.1394474432812847,0.026855557442538,0.0162875470804879,0.0097840942624994,0.0135671671240211,0.0671756990613928,0.0,-0.0101113231725819,0.0363937814193657,0.0495065358553223,-0.0732972842927224,-0.1185733086381647,-0.2785972902396599,1.88,0.0,0.0,0.0,26.54,2.4800000000000004,0.3200000000000003,0.10024,0.0169247590019443,0.0,-0.0048366379724938,0.2276612276612277,-0.2849319999999999,9.0,28.5,6.0,75.75,2.0,22.5,3.0,50.5,5.0,23.75,2.0,24.25,0.0,20.5,-0.0092778837384271,-0.0460970121651745,-0.0266074389863172,-0.0009362248445493,-0.0430273227814963,-0.0164054884789264,-0.0207018679863511,-0.0311945390213948,0.0057623243149556,-0.019325216806797,,,,,,,,,,,,,,,,,,,,,,
2008-03-07,-0.0092778837384271,0.0102830345240245,0.0070452169401584,-0.0075270002272874,0.0239053161427575,-0.0098117294605873,-0.0460970121651745,0.0394151546188197,0.0415415457727097,0.0077548158414557,-0.1043942175725009,-0.1715311750370577,-0.0266074389863172,0.0251851245973783,0.0327048965660462,0.0199922376213128,-0.1115538869934094,-0.1584067569641772,-0.0009362248445493,0.0300423877675606,0.0225695677966883,0.0544257076610824,0.2019318875222658,-0.0009357867228069,-0.0430273227814963,0.0201519438488414,0.037047780040331,-0.0547215056208611,-0.1250772096336846,-0.2185727947524907,-0.0164054884789264,0.0124846328957505,0.0108044334267911,-0.0152749744891346,0.0226632935653989,-0.0273456146999216,-0.0207018679863511,0.0119605517397585,0.0286899579089729,-0.0357223275686366,-0.1908604896060403,-0.2261326145888156,-0.0311945390213948,0.0203219091271385,0.0306275828375868,-0.0255744194091115,-0.1209941778792094,-0.1658776020529886,0.0057623243149556,0.0154759554698347,0.0095513787000447,0.0235547001795191,0.0740884657212827,0.0,-0.019325216806797,0.0116530255487916,0.0455238844463314,-0.0206793195144228,-0.0646893954236165,-0.2924047086220925,2.03,0.0,0.0,0.0,27.49,0.9499999999999992,0.25,0.09166,-0.0141157385394232,0.0,0.0077699556841177,0.0267932489451476,-0.2849319999999999,2.0,26.75,-2.0,79.0,2.0,22.5,-13.0,49.75,-2.0,22.5,-4.0,23.0,0.0,20.0,0.0093071198598771,-0.016561695209844,0.0032934141282967,0.0269010349769443,0.0027256550149419,-0.0112033859211822,0.0042690397383102,-0.0007711235974492,0.0030669687006893,0.0186475113146796,,,,,,,,,,,,,,,,,,,,,,
2008-03-14,0.0093071198598771,0.010549830171789,0.0073499644176845,0.0095961600776401,0.0296329737475246,-0.0005529089015506,-0.016561695209844,0.0272916933257357,0.0401730977936944,-0.0535210065704946,-0.1461203741900519,-0.185139027613751,0.0032934141282967,0.0176420721241935,0.0326795766549361,-0.0092493268510949,-0.1122559315749249,-0.1556304726697555,0.0269010349769443,0.0196283726011643,0.0227457804501044,0.1018658877298676,0.2089104141302376,0.0,0.0027256550149419,0.0201135095080024,0.0327862412670856,-0.0548622455927105,-0.1692346826407,-0.2164399884450112,-0.0112033859211822,0.012978472292109,0.0106068622785049,-0.0190097088032711,-0.0031692990352433,-0.0381818226935747,0.0042690397383102,0.0116658460919812,0.027443770544512,-0.0364859692623831,-0.2047510409953984,-0.2228218821722791,-0.0007711235974492,0.0155817341407992,0.0300203648706467,-0.0417811873200766,-0.1335603184381308,-0.1665205655831709,0.0030669687006893,0.0119442863149679,0.0095833508956009,0.0367086890419727,0.0698012878462513,0.0,0.0186475113146796,0.0166160097235738,0.0458754759262039,-0.0067570170121662,-0.0553867873675135,-0.2790860231908846,1.97,0.0,0.0,0.0,31.16,3.6700000000000017,0.4600000000000008,0.0613599999999999,0.0174272135523054,0.0,0.0029455846596881,0.0429422642284775,-0.2849319999999999,7.0,29.5,0.0,82.5,10.0,25.0,10.0,49.25,0.0,22.75,2.0,25.0,0.0,20.0,0.0084484098924653,-0.0195588788458305,-0.0070299548198253,-0.0933770384273609,0.0200570700277988,0.0158990011424297,0.0204682161416557,0.0238161052221642,-0.0055091944055292,0.074289990854062,,,,,,,,,,,,,,,,,,,,,,
2008-03-21,0.0084484098924653,0.0099890943648327,0.0073787842232857,0.0215813753638573,0.0300383332987007,0.0,-0.0195588788458305,0.0155005537595084,0.039950137581966,-0.0936121477825318,-0.1680286097012864,-0.2009219434369827,-0.0070299548198253,0.0131675830098831,0.0321690260525947,-0.0316003394779686,-0.1285703674542645,-0.1615455366216398,-0.0933770384273609,0.0575900292569172,0.0384347649141318,-0.0379750558585977,0.0799686029309177,-0.0891499899096599,0.0200570700277988,0.0266196679989334,0.0340577128345729,-0.0283438426136867,-0.1262434924132722,-0.2005654037674395,0.0158990011424297,0.016584513683309,0.0115478822377892,0.0016460817033491,0.008447121645947,-0.0227676642278581,0.0204682161416557,0.0192242602690727,0.0292088246743472,-0.0128185581231185,-0.1837035947896429,-0.2067505174776376,0.0238161052221642,0.0231210197133101,0.0316688869400616,-0.0215107823819911,-0.1041254698193926,-0.1464320662849906,-0.0055091944055292,0.0137421530641683,0.0101291127385986,0.0301756560526537,0.059094833481525,-0.005494046624154,0.074289990854062,0.0421676899632649,0.0506906419586402,0.0635009621893626,0.0416092743053707,-0.2234897753784142,1.7499999999999998,0.0,0.0,0.0,26.62,-4.539999999999999,0.0199999999999995,0.0246999999999999,-0.008832599978808,1.5,0.0028920698502055,0.0149724192277382,-0.2849319999999999,7.0,35.75,-3.0,82.75,28.0,35.5,8.0,51.25,5.0,24.75,7.0,26.75,-1.0,19.75,-0.0056247740734896,0.03806866226116,0.0309025871709154,0.0216741372002377,0.0120983623204804,0.0030542921708686,0.0092399214798368,-0.0043248840045097,-0.0070888303087317,-0.0146298915387658,,,,,,,,,,,,,,,,,,,,,,
2008-03-28,-0.0056247740734896,0.0095512756610775,0.007341735008309,0.0028528719404256,0.0146724606748659,-0.0056089846496524,0.03806866226116,0.0353256997814177,0.0407888150838362,-0.0441489239596891,-0.0796797422411309,-0.1699156716298776,0.0309025871709154,0.0239660491395156,0.0335457692212813,0.0005586074930696,-0.0665517526142082,-0.1352306190913118,0.0216741372002377,0.0559481560148395,0.0382871657923534,-0.0457380910947283,0.0763038802951739,-0.0691926035295554,0.0120983623204804,0.0282302783199688,0.0307063334550005,-0.0081462354182749,-0.0539857171746498,-0.1908348109408033,0.0030542921708686,0.014583473241259,0.0101516294298281,-0.0086555810868102,-0.0070566885459661,-0.0197783483574289,0.0092399214798368,0.017388287242149,0.024644906985932,0.0132753093734516,-0.106187782509212,-0.1993869877158798,-0.0043248840045097,0.0225144580503107,0.0299353999580503,-0.0124744414011899,-0.0669346640708909,-0.1501156772514925,-0.0070888303087317,0.0063156573163212,0.0098311248016261,-0.003768731698616,0.0344642503800334,-0.0125190017932366,-0.0146298915387658,0.043145101904756,0.0459651659926308,0.0589823938231788,0.0950238007255091,-0.2347673398234998,1.8000000000000005,0.0,0.0,0.0,25.71,-0.91,-0.4100000000000001,-0.0203499999999999,0.0059855105407553,0.0,-0.0032381318124068,0.1119953416149068,-0.2849319999999999,-19.0,35.0,-1.0,81.25,-34.0,37.0,-12.0,49.5,-3.0,24.75,-4.0,27.0,0.0,19.5,0.0003482111026891,0.052351965102686,0.0431643977653826,-0.0178997507147629,0.0426332076480043,0.0153185070265972,0.0530626195960124,0.0400949190899797,0.0048465465914594,0.0610128446795701,,,,,,,,,,,,,,,,,,,,,,
2008-04-04,0.0003482111026891,0.0070905169337492,0.0073021214944881,0.012478966781542,0.0113075404409357,-0.0052626663652565,0.052351965102686,0.0370120108391821,0.0438987574704114,0.0543000533081714,-0.0422842304363466,-0.1253014950775322,0.0431643977653826,0.0233937963484395,0.0360093457361978,0.0703304442447694,-0.0048013114718154,-0.0970860481275858,-0.0178997507147629,0.0555284704598053,0.0373232701467522,-0.0627016169649421,0.0186774780467408,-0.0857055937892662,0.0426332076480043,0.0170446427143952,0.0326452239311487,0.0775142950112257,0.0149294025118546,-0.155591575308159,0.0153185070265972,0.0127702977734336,0.0111387600960048,0.0230684144187133,0.0091070776290241,-0.0046472188259615,0.0530626195960124,0.0219408960324936,0.0295184379250732,0.0870397969558152,-0.0248363380622993,-0.1557570410814869,0.0400949190899797,0.0210499969151651,0.0326713754214602,0.0588150167101849,-0.0185972628409753,-0.1153472736194886,0.0048465465914594,0.0060003303210917,0.009847250017546,-0.0046845094221121,0.0366031407039983,-0.0077215128911904,0.0610128446795701,0.0406234170757964,0.0484447067330371,0.139320455309546,0.1490375296469908,-0.1866245889183907,1.67,0.0029026965630389,0.0999999999999996,-8.199999999999996,22.45,-3.2600000000000016,-0.2300000000000004,-0.05281,-0.0114736035527117,-3.5,0.0018736317342906,-0.0996683539884796,-0.2849319999999999,9.0,36.0,16.0,84.25,-4.0,37.0,13.0,54.25,-2.0,24.75,0.0,28.25,3.0,20.0,0.0032153581853306,-0.0102106711458536,-0.0293020161324023,0.0115672238135375,-0.0345999130835603,-0.0034963778217234,-0.0350601111740652,-0.0259756127702507,0.0056773328078708,-0.0387363573698784,,,,,,,,,,,,,,,,,,,,,,
2008-04-11,0.0032153581853306,0.0058672649804148,0.0070794766799465,0.0063872051069955,0.0073299818175784,-0.0020590819616613,-0.0102106711458536,0.0353888897198955,0.0366716621182545,0.060651077372162,0.0286832037779921,-0.1341873115867698,-0.0293020161324023,0.0335170639247237,0.034247918787353,0.0377350139840704,0.0128857742926461,-0.1231593811609484,0.0115672238135375,0.0520283873170824,0.037118041955638,-0.0780354281283487,0.043426752536849,-0.0750683426344036,-0.0345999130835603,0.0324531321856051,0.0316000074568476,0.0401887269127234,0.0239919670283437,-0.1843083693097373,-0.0034963778217234,0.0095255200312136,0.0111837261274891,0.0307754225181723,0.0028906605728943,-0.0081212713756149,-0.0350601111740652,0.0364238959038038,0.0293359296613146,0.0477106460434398,-0.0230953496444962,-0.18484342772233,-0.0259756127702507,0.0293588691590371,0.0284310423408891,0.0336105275373834,0.0148841106490101,-0.1380307857844765,0.0056773328078708,0.0067143711574889,0.0095319777042601,-0.0020741453149307,0.0307868995868893,-0.0020719957619556,-0.0387363573698784,0.0556108742626668,0.0482833100167603,0.081936586624988,0.15068717787603,-0.2175293561628851,1.7300000000000002,0.0,0.0,0.0,23.46,1.0100000000000016,0.0,-0.0736899999999999,0.010547601696488,0.0,0.0002486790451199,-0.0060100814269096,-0.2849319999999999,-2.0,34.75,-8.0,85.25,-2.0,34.0,-3.0,55.75,-3.0,24.0,0.0,29.0,-1.0,20.25,-0.0077143170099266,0.0461415443713981,0.0360969090128436,-0.0074758514787518,0.0417407247439539,-0.0070287809141073,0.0534245045116721,0.0375239592941636,-0.0180583196818737,0.0419098985583773,,,,,,,,,,,,,,,,,,,,,,
2008-04-18,-0.0077143170099266,0.0050898049388421,0.0074470128407824,-0.0097755217953965,0.0018461236390036,-0.0097278966952819,0.0461415443713981,0.0284726523374969,0.0382396306035442,0.1263515005893907,0.0900059606105711,-0.0933013602740057,0.0360969090128436,0.0333919615925597,0.0352648569805636,0.0808618778167394,0.0633086378548231,-0.0909299532275018,-0.0074758514787518,0.0179294058337654,0.0360764487577583,0.0078657588202603,0.0035374753290695,-0.0819572121661906,0.0417407247439539,0.0362691556313283,0.0333690640541885,0.0618723816288784,0.0473076826166847,-0.1495402337515484,-0.0070287809141073,0.0098356055905051,0.0112227328140627,0.007847640461635,-0.0098327766670514,-0.0150685256865419,0.0534245045116721,0.0422595876627775,0.0318095262318696,0.0806669344134561,0.0607769240584371,-0.1401097949718684,0.0375239592941636,0.03240025632024,0.030293337910245,0.0473183816093828,0.0450142819893359,-0.1050717790946137,-0.0180583196818737,0.0112341078247873,0.0111186711306379,-0.0146232705912752,0.0062977871599447,-0.0199311601079908,0.0419098985583773,0.0468315576979072,0.0438435987553488,0.0495564943293033,0.107873267108416,-0.1840392083135509,1.58,0.0,0.0,0.0,20.13,-3.330000000000002,-0.6099999999999994,-0.08227,-0.0124576021607361,0.0,0.0038063785753938,-0.0745075092646772,-0.2849319999999999,-7.0,30.0,7.0,88.75,-3.0,23.25,-9.0,53.0,-3.0,21.25,-4.0,27.0,-1.0,20.5,-0.0041266407377943,0.0044448370400978,0.0042400254976378,-0.037668246838623,0.0032046557657995,-0.0032461139808829,0.009376248960633,0.0080556469990746,-0.0106561452829194,0.0278276339881975,,,,,,,,,,,,,,,,,,,,,,
2008-04-25,-0.0041266407377943,0.0048260004148458,0.0074495824813989,-0.0082773884597012,-0.0060068144527693,-0.0138059737316802,0.0044448370400978,0.0307905792077643,0.0362803556582959,0.0927276753683283,0.0485787514086391,-0.0892622626604976,0.0042400254976378,0.0332081645220425,0.0335665584244885,0.0541993161434619,0.0278872534283233,-0.0870672899414892,-0.037668246838623,0.0205469071610697,0.0376327460267508,-0.0514766252186002,-0.0235545018187358,-0.1158950719026578,0.0032046557657995,0.0368131194789812,0.028592926613855,0.0529786750741974,-0.0081945955381984,-0.1468104312556201,-0.0032461139808829,0.0101031983221343,0.0110663733191327,0.0015472343098835,-0.0184293234358975,-0.0182605418883886,0.009376248960633,0.0422478912200778,0.0303777506882127,0.0808032618942523,0.0344265982979541,-0.1320093337052213,0.0080556469990746,0.0308992228786481,0.027007283481276,0.0596989126129673,0.0050822145236077,-0.0978334376390468,-0.0106561452829194,0.0117282154495664,0.0114993732662128,-0.018190585565463,-0.0083921501400579,-0.0303194680914352,0.0278276339881975,0.0433483734650928,0.0415841625039245,0.0920140198562667,0.0776991293867232,-0.1610140682954423,1.4700000000000002,0.0,0.0,0.0,19.59,-0.5399999999999991,-0.3100000000000005,-0.0855699999999999,0.0043961701046826,0.0,0.0014599038458249,0.1458377239199157,-0.2849319999999999,0.0,30.0,6.0,94.0,-1.0,20.75,4.0,54.25,4.0,20.25,-2.0,25.5,1.0,21.0,0.0066216807682459,0.0207291473453859,0.0111765373002555,-0.0313088690160204,0.0089988801110255,0.0135165928481083,0.0337812150269555,0.0135886069016765,0.0032146661040626,-0.0058881497734188,,,,,,,,,,,,,,,,,,,,,,
2008-05-02,0.0066216807682459,0.0065757410870465,0.0076938261003378,-0.0020039187941445,0.0029480477601101,-0.0072540432581772,0.0207291473453859,0.0241474853231153,0.0315381671269713,0.0611048576110283,0.1231597267606555,-0.0701864159571481,0.0111765373002555,0.0269638684237013,0.0236073100770313,0.0222114556783348,0.1125341375444171,-0.0768066309448469,-0.0313088690160204,0.0226295617354187,0.0379282333352967,-0.0648857435198577,-0.0731616528237174,-0.1431465645271255,0.0089988801110255,0.0312897257043488,0.0256254836925274,0.0193443475372185,0.0421371369275829,-0.1390980311783557,0.0135165928481083,0.0092167915919859,0.0112748179609917,-0.0002546798686055,0.0075387600609731,-0.0049006828640231,0.0337812150269555,0.0381498749623955,0.0275314531287589,0.0615218573251954,0.1128393267123741,-0.1021866674228279,0.0135886069016765,0.0261845150503384,0.0224845486631611,0.0331926004246642,0.0664331977257376,-0.0854905796661552,0.0032146661040626,0.0113135610057308,0.0114925532262627,-0.0198224660528597,-0.0009522752954528,-0.0271972532033213,-0.0058881497734188,0.036093981443676,0.0339270722343133,0.0251130254032778,0.1437541611984011,-0.1659396276725648,1.42,0.0017524235645041,0.4000000000000003,-2.8000000000000043,18.18,-1.41,-0.2000000000000001,-0.0750899999999999,0.0026530259736887,0.0,-0.0082846290136595,0.0522346882471951,-0.2849319999999999,4.0,28.75,-15.0,91.5,2.0,19.75,3.0,53.0,0.0,19.75,0.0,24.0,0.0,20.75,0.002938317863032,-0.0177997060913843,-0.0078762168293841,0.0330262147965461,-0.0145782587832392,0.0020821967099519,-0.0115490198289308,-0.0186159386878877,0.0141023802433952,-0.035001440643733,,,,,,,,,,,,,,,,,,,,,,
2008-05-09,0.002938317863032,0.006524812261578,0.0072848891264937,-0.0022809591164429,0.0137024060681926,-0.0043327503382447,-0.0177997060913843,0.0269526743324039,0.0304753626775656,0.0535158226654976,0.0606458934671649,-0.0865903983371169,-0.0078762168293841,0.0185459962300286,0.0228745929917808,0.0436372549813528,0.0721229421143283,-0.084049342071707,0.0330262147965461,0.0320119280326544,0.0392045743716045,-0.043426752536849,-0.0195962929353303,-0.1143754535532489,-0.0145782587832392,0.0235134207632096,0.0261547503075688,0.0393660018375395,0.0246924831575525,-0.1515574439338563,0.0020821967099519,0.0089422010504499,0.0109846574378473,0.0053238946630699,0.017089608377971,-0.0028265316938168,-0.0115490198289308,0.0283372045475152,0.0281792540303079,0.0850329486703298,0.0962576254513864,-0.1124958861312082,-0.0186159386878877,0.0230436009810382,0.0232570582403861,0.0405522745070273,0.032381614724334,-0.1023575466474017,0.0141023802433952,0.0143340185215528,0.0116972191700535,-0.0113974186173353,0.0232371251097064,-0.0133812285229452,-0.035001440643733,0.0345568952317281,0.0365371248578744,0.0288479421294231,0.1040275117422448,-0.1946279472498624,1.52,0.0,0.0,0.0,19.41,1.2300000000000004,0.2600000000000007,-0.05465,0.0012351781437647,0.0,-0.0039596002671107,-0.092641146652683,-0.2849319999999999,-10.0,25.5,-4.0,90.0,-3.0,18.5,-7.0,50.75,-3.0,19.25,3.0,23.25,-2.0,20.25,-0.0031340189218744,0.0536376130979995,0.0342004066428297,0.01903524886162,0.0336919756978679,-0.0007566479648592,0.0366567621004379,0.0267099725793732,-0.0010203052412268,0.0407422197244174,,,,,,,,,,,,,,,,,,,,,,
2008-05-16,-0.0031340189218744,0.0050993420005484,0.0072622649272123,0.0022993389716093,0.0141051925400701,-0.0074483056837719,0.0536376130979995,0.0300702759047301,0.0333653292538484,0.0610118913920987,0.0937512441989576,-0.0362595401926833,0.0342004066428297,0.0176920208114916,0.0241849099031007,0.0417407526113389,0.0910022909501095,-0.0521816187173503,0.01903524886162,0.0354996659123299,0.0368759021935919,-0.0169156521964773,-0.0470249492348146,-0.0973558980800683,0.0336919756978679,0.019947697751919,0.0274997126770738,0.0313172527914536,0.0648457918066452,-0.1224847294628745,-0.0007566479648592,0.0074055527226459,0.0108397763218555,0.011596027612318,0.0210897497773021,-0.0035807555922497,0.0366567621004379,0.0226653039068315,0.0290711914346506,0.0682652062590955,0.1361135825494331,-0.0793592281155828,0.0267099725793732,0.0190475549990069,0.0242729134482526,0.0297382877922369,0.0555458870196285,-0.0780584721339305,-0.0010203052412268,0.0102607923907039,0.0117265647818434,0.0056405958233115,0.02119298128469,-0.0143873674548787,0.0407422197244174,0.0341688337149428,0.0376339618021538,0.0276802632954632,0.1407377198141292,-0.1611377011232406,1.38,0.0,0.0,0.0,16.47,-2.9400000000000013,-0.2700000000000004,-0.0325099999999999,-0.0101807410472904,0.0,0.0062017945149177,-0.1028703525332306,-0.2849319999999999,-2.0,23.5,5.0,88.0,-1.0,17.75,-3.0,50.0,0.0,19.5,3.0,24.25,1.0,20.25,0.0002941651571407,-0.0422062510889179,-0.0246255897291745,0.0236245098024618,-0.0238108010575086,-0.010273122423603,-0.036864093535353,-0.0358226469671049,0.007122312024182,-0.0496487490171783,,,,,,,,,,,,,,,,,,,,,,
2008-05-23,0.0002941651571407,0.004127101042551,0.0062155526182155,0.0067201448665445,0.0012956283472687,-0.0071562886101246,-0.0422062510889179,0.0422426722988639,0.0360549510449706,0.014360803263083,0.0629395546717222,-0.0760889740836045,-0.0246255897291745,0.0253087268937311,0.0258453124547471,0.0128751373845263,0.0676330610210579,-0.0752371620377206,0.0236245098024618,0.028862331020198,0.0364334409941405,0.0443771044446074,-0.052837611868721,-0.0757774875586609,-0.0238108010575086,0.0257616160446234,0.0285548376473255,0.0043017959681455,0.0491342356240678,-0.1431322781487835,-0.010273122423603,0.0097966729350749,0.0106864026430508,0.0045690191695978,-0.0025393276073288,-0.0137646924949475,-0.036864093535353,0.0358513425672917,0.0313223079942501,0.0220248637631095,0.1161034350308135,-0.1126798745586783,-0.0358226469671049,0.0287396540110837,0.026545936653135,-0.0141400061739428,0.0330844650378347,-0.110500312506038,0.007122312024182,0.0064256399334675,0.0089411859562261,0.0234190531304133,0.0014597358663341,-0.0073424685475349,-0.0496487490171783,0.0398529987052144,0.0412744243607633,-0.0497961197099128,0.1012002939695327,-0.201769168075881,1.39,0.0,0.0,0.0,19.55,3.080000000000002,0.0700000000000002,-0.0049699999999999,0.0208049535603715,0.0,0.0023485145729049,-0.055400472407129,-0.2849319999999999,-3.0,20.75,-5.0,83.25,5.0,18.5,2.0,48.75,2.0,19.25,-4.0,24.75,-1.0,19.75,-0.0094621775334128,0.0174007439558838,0.0013041491020527,-0.0423166605863235,0.0334995695702694,-0.0133793587025355,0.036864093535353,0.0194973733861355,-0.0158871263745361,0.0213651822449995,,,,,,,,,,,,,,,,,,,,,,
2008-05-30,-0.0094621775334128,0.0053589595058693,0.0062410276000602,-0.0093637134351143,0.0011113345522832,-0.0165064458841365,0.0174007439558838,0.0418232317229181,0.0322987784292174,0.0110323998735809,0.1264373107927808,-0.0598715464291201,0.0013041491020527,0.0247492017029466,0.0238594010015071,0.0030027491863235,0.0955446491094278,-0.0740303466504251,-0.0423166605863235,0.0342710326134202,0.0380000871091488,0.0333693128743044,-0.0942180476104953,-0.114071545341567,0.0334995695702694,0.0307107715754133,0.0254510667304276,0.0288024854273893,0.1256611279758335,-0.1139413666398136,-0.0133793587025355,0.0074123627703128,0.0102981728463126,-0.0223269323810459,0.000486802169062,-0.0268720091686627,0.036864093535353,0.0366852430393591,0.0306479469482924,0.025107742271507,0.1736693965525176,-0.0793592281155828,0.0194973733861355,0.0300357957910438,0.0246151178337503,-0.008231239689484,0.083776377445365,-0.0929872302125986,-0.0158871263745361,0.0128890984872351,0.0098386904429384,0.0043172606518145,-0.0201897148231575,-0.0229883312133668,0.0213651822449995,0.0435103600204071,0.0404498309600045,-0.0225427876914945,0.1418906930213294,-0.1845313318311977,1.3999999999999997,0.0,0.0,0.0,17.83,-1.7200000000000024,-0.1299999999999999,0.0212099999999999,0.006195971672378,0.0,-0.0023053558263144,0.1229824960218231,-0.2849319999999999,1.0,17.25,-9.0,80.0,-7.0,17.0,-10.0,44.25,-5.0,17.75,-11.0,22.5,-1.0,19.0,0.0039093983828369,-0.0445326967599734,-0.0311140617323468,0.0182431059130686,-0.0100945169972893,0.00381863104805,-0.0197910117385181,-0.0293540086132776,0.0072037874377457,-0.0252289048797175,,,,,,,,,,,,,,,,,,,,,,
